!!!!SEGMENT: pl-cz--iii-115--003_dankowski-adalbert--missa-es-credo.krn
!!!cenid: 18xx:824
!!!COM: Dankowski, Adalbert
!!!COM-rismid: pe30000793
!!!CDT: ~1760-~1836
!!!CNT: Polish
!!!OPR: Missa Es
!!!OTL: Credo
!!!OMV: 003
!!!PDT: 1802
!!!AGN: Sacred; Vespers
!!!SMS-siglum: PL-CZ
!!!SMS-shelfmark: III-115
!!!SMS-shelfwork: 001-003 M
!!!SMS-variant:
!!!SMS-altvar:
!!!NIFC-rismid: 300000112
!!!URL-scan: http://repozytorium.nifc.pl/skany/pl-cz-nut--iii-115
!!!ONB-nifc: UWAGA: części Mszy: Kyrie, Gloria, Credo, Sanctus, Benedictus, Agnus Dei. Uwaga: brak partii cor 1 i 2
**kern	**fba	**dynam	**kern	**kern	**dynam	**kern	**text	**kern	**text	**kern	**text	**kern	**text	**dynam	**kern	**dynam	**kern	**kern	**kern
*part11	*part11	*part11	*part10	*part9	*part9	*part8	*part8	*part7	*part7	*part6	*part6	*part5	*part5	*part5	*part4	*part4	*part3	*part2	*part1
*staff11	*	*	*staff10	*staff9	*	*staff8	*staff8	*staff7	*staff7	*staff6	*staff6	*staff5	*staff5	*	*staff4	*	*staff3	*ataff2	*staff1
*I"Organo	*	*	*I"Violino Secundo.	*I"Violino Primo.	*	*I"Basso	*	*I"Tenore	*	*I"Alto	*	*I"Canto	*	*	*I"Clarinetto Secundo in B	*	*I"Clarinetto Primo in B	*I"Clarino Secondo	*I"Clarino Primo Ex D:
*I'Org.	*	*	*I'Vn II	*I'Vn I	*	*I'B.	*	*I'T.	*	*I'A.	*	*I'C.	*	*	*I'Cl. II	*	*I'Cl. I	*I'Cor II	*I'Cor I
*ICklav	*	*	*ICstr	*ICstr	*	*ICvox	*	*ICvox	*	*ICvox	*	*ICvox	*	*	*ICww	*	*ICww	*	*
*clefF4	*	*	*clefG2	*clefG2	*	*clefF4	*	*clefC4	*	*clefC3	*	*clefC1	*	*	*clefG2	*	*clefG2	*	*
*	*	*	*	*	*	*	*	*	*	*	*	*	*	*	*ITrd1c2	*	*ITrd1c2	*	*
*k[b-a-e-]	*	*	*k[e-b-a-]	*k[b-e-a-]	*	*k[b-e-a-]	*	*k[e-b-a-]	*	*k[e-a-b-]	*	*k[a-e-b-]	*	*	*k[b-e-a-]	*	*k[b-e-a-]	*	*
*E-:	*	*	*E-:	*E-:	*	*E-:	*	*E-:	*	*E-:	*	*E-:	*	*	*E-:	*	*E-:	*	*
*M3/8	*	*	*M3/8	*M3/8	*	*M3/8	*	*M3/8	*	*M3/8	*	*M3/8	*	*	*M3/8	*	*M3/8	*	*
=1	=1	=1	=1	=1	=1	=1	=1	=1	=1	=1	=1	=1	=1	=1	=1	=1	=1	=1	=1
!	!	!	!	!	!	!	!	!	!	!LO:SIC:v:t=źle podpisany tekst w źródle	!	!	!	!	!	!	!	!	!
!LO:SIC:v:t=kolejność znaków b as es	!	!	!LO:SIC:v:t=kolejność znaków es b as	!	!	!LO:TX:a:t=8	!	!LO:TX:a:t=8	!	!LO:SIC:v:tkolejność znaków&colon;e-,a-,b-	!	!LO:SIC:v:t=kolejność znaków a- e- b-	!	!	!	!	!	!	!
!LO:TX:a:t=Allo	!	!	!LO:TX:a:t=Allo	!LO:TX:a:t=Allegro	!	!LO:TX:a:t=Allo	!	!LO:SIC:v:t=kolejność znaków&colon;e-,b-,a-	!	!LO:TX:a:t=Allo	!	!LO:TX:a:t=Allo	!	!	!LO:TX:a:t=Allo	!	!	!	!
8E-\L	.	.	4e-/	4g/	.	4.r	.	1.r	.	4g\	Cre-	4ee-\	Cre-	.	4ee-\	.	4gg\	4.ryy	4.ryy
8E-\	.	.	.	.	.	.	.	.	.	.	.	.	.	.	.	.	.	.	.
8E-\J	.	.	8e-/	8g/	.	.	.	.	.	8g\	-do	8ee-\	-do	.	8ee-\	.	8gg\	.	.
=2	=2	=2	=2	=2	=2	=2	=2	=2	=2	=2	=2	=2	=2	=2	=2	=2	=2	=2	=2
*tremolo	*	*	*	*	*	*	*	*	*	*	*ij	*	*ij	*	*	*	*	*	*
!	!	!LO:DY:a:rj:t=p.	!	!	!	!	!	!	!	!	!	!	!	!	!	!	!	!	!
8E-\L	.	p	8e-/L	8g/L	.	4.r	.	.	.	8g\L	Cre-	8ee-\L	Cre-	.	8ee-\L	.	8gg\L	4.ryy	4.ryy
8E-\	.	.	8d/	8f/	.	.	.	.	.	8f\	.	8dd\	.	.	8dd\	.	8ff\	.	.
8E-\J	.	.	8e-/J	8g/J	.	.	.	.	.	8g\J	-do	8ee-\J	-do	.	8ee-\J	.	8gg\J	.	.
*	*	*	*	*	*	*	*	*	*	*	*Xij	*	*Xij	*	*	*	*	*	*
=3	=3	=3	=3	=3	=3	=3	=3	=3	=3	=3	=3	=3	=3	=3	=3	=3	=3	=3	=3
8BB-/L	.	.	4f/	4a-/	.	4.r	.	.	.	4a-\	in	4ff\	in	.	4ff\	.	4aa-\	4.ryy	4.ryy
8BB-/	.	.	.	.	.	.	.	.	.	.	.	.	.	.	.	.	.	.	.
8BB-/J	.	.	8d/	8f/	.	.	.	.	.	8f\	.	8dd\	.	.	8dd\	.	8ff\	.	.
=4	=4	=4	=4	=4	=4	=4	=4	=4	=4	=4	=4	=4	=4	=4	=4	=4	=4	=4	=4
8BB-/L	.	.	8d/L	8f/L	.	4.r	.	.	.	8f\L	u-	8dd\L	u-	.	8dd\L	.	8ff\L	4.ryy	4.ryy
8BB-/	.	.	8c/	8e-/	.	.	.	.	.	8e-\	-num	8ff\	-num	.	8cc\	.	8ee-\	.	.
8BB-/J	.	.	8d/J	8f/J	.	.	.	.	.	8f\J	.	8dd\J	.	.	8dd\J	.	8ff\J	.	.
=5	=5	=5	=5	=5	=5	=5	=5	=5	=5	=5	=5	=5	=5	=5	=5	=5	=5	=5	=5
8E-\L	x 3	.	4e-/	4g/	.	4.r	.	1.r	.	4g\	.	4ee-\	.	.	4ee-\	.	4gg\	4.ryy	4.ryy
8E-\	4 2	.	.	.	.	.	.	.	.	.	.	.	.	.	.	.	.	.	.
*	*	*	*	*	*	*	*	*	*	*	*ij	*	*ij	*	*	*	*	*	*
8E-\J	.	.	8f/	8a-/	.	.	.	.	.	8a-\	in	8ff\	in	.	8ff\	.	8aa-\	.	.
=6	=6	=6	=6	=6	=6	=6	=6	=6	=6	=6	=6	=6	=6	=6	=6	=6	=6	=6	=6
8E-\L	x 3	.	8g/L	8b-/L	.	4.r	.	.	.	8b-\L	u-	8gg\L	u-	.	8gg\L	.	8bb-\L	4.ryy	4.ryy
8E-\	.	.	8e-/	8g/	.	.	.	.	.	8g\	-num	8ee-\	-num	.	8ee-\	.	8gg\	.	.
8E-\J	.	.	8f/J	8a-/J	.	.	.	.	.	8a-\J	in	8ff\J	in	.	8ff\J	.	8aa-\J	.	.
*	*	*	*	*	*	*	*	*	*	*	*Xij	*	*Xij	*	*	*	*	*	*
=7	=7	=7	=7	=7	=7	=7	=7	=7	=7	=7	=7	=7	=7	=7	=7	=7	=7	=7	=7
8E-\L	.	.	8g/L	8b-/L	.	4.r	.	.	.	8b-\L	u-	8gg\L	u-	.	8gg\L	.	8bb-\L	4.ryy	4.ryy
8E-\	.	.	8f/	8a-/	.	.	.	.	.	8a-\	-num	8ff\	-num	.	8ff\	.	8aa-\	.	.
8E-\J	.	.	8e-/J	8g/J	.	.	.	.	.	8g\J	.	8ee-\J	.	.	8ee-\J	.	8gg\J	.	.
*Xtremolo	*	*	*	*	*	*	*	*	*	*	*	*	*	*	*	*	*	*	*
=8	=8	=8	=8	=8	=8	=8	=8	=8	=8	=8	=8	=8	=8	=8	=8	=8	=8	=8	=8
8B-\L	4	.	8e-/L	8g/L	.	4.r	.	.	.	8g\L	De-	8ee-\L	de-	.	8ee-\L	.	8gg\L	4.ryy	4.ryy
16B-\L	3	.	8d/J	8f/J	.	.	.	.	.	8f\J	-um	8dd\J	-um	.	8dd\J	.	8ff\J	.	.
16A-\	.	.	.	.	.	.	.	.	.	.	.	.	.	.	.	.	.	.	.
16G\	.	.	8r	8r	.	.	.	.	.	8r	.	8r	.	.	8r	.	8r	.	.
16F\JJ	.	.	.	.	.	.	.	.	.	.	.	.	.	.	.	.	.	.	.
!	!	!	!LO:LB:g=original	!LO:LB:g=original	!	!	!	!	!	!LO:LB:g=original	!	!LO:LB:g=original	!	!	!	!	!	!	!
=9	=9	=9	=9	=9	=9	=9	=9	=9	=9	=9	=9	=9	=9	=9	=9	=9	=9	=9	=9
*tremolo	*	*	*tremolo	*	*	*	*	*	*	*	*	*	*	*	*	*	*	*	*
8E-\L	.	.	16g/LL	4gg\	.	4E-\	Cre-	4B-\	Pa-	4g\	pa-	4ee-\	pa-	.	4.ee-\	.	4.gg\	4.ryy	4.ryy
.	.	.	16b-/	.	.	.	.	.	.	.	.	.	.	.	.	.	.	.	.
8E-\	.	.	16g/	.	.	.	.	.	.	.	.	.	.	.	.	.	.	.	.
.	.	.	16b-/	.	.	.	.	.	.	.	.	.	.	.	.	.	.	.	.
8E-\J	.	.	16g/	8gg\	.	8E-\	-do	8B-\	-trem	8g\	.	8ee-\	.	.	.	.	.	.	.
.	.	.	16b-/JJ	.	.	.	.	.	.	.	.	.	.	.	.	.	.	.	.
=10	=10	=10	=10	=10	=10	=10	=10	=10	=10	=10	=10	=10	=10	=10	=10	=10	=10	=10	=10
*	*	*	*	*	*	*	*ij	*	*	*	*	*	*	*	*	*	*	*	*
8E-\L	.	.	16g/LL	8gg\L	.	4E-\	Cre-	4B-\	.	4g\	-trem	4ee-\	-trem	.	4.ee-\	.	4.gg\	4.ryy	4.ryy
.	.	.	16b-/	.	.	.	.	.	.	.	.	.	.	.	.	.	.	.	.
8E-\	.	.	16g/	16aa-\L	.	.	.	.	.	.	.	.	.	.	.	.	.	.	.
.	.	.	16b-/	16gg\	.	.	.	.	.	.	.	.	.	.	.	.	.	.	.
!	!	!	!	!LO:TX:a:t=10	!	!	!	!	!	!	!	!	!	!	!	!	!	!	!
8E-\J	.	.	16g/	16ff\	.	8E-\	-do	8B-\	o-	8g\	.	8ee-\	.	.	.	.	.	.	.
*	*	*	*	*	*	*	*Xij	*	*	*	*	*	*	*	*	*	*	*	*
.	.	.	16b-/JJ	16gg\JJ	.	.	.	.	.	.	.	.	.	.	.	.	.	.	.
!LO:LB:g=original	!	!	!	!	!	!	!	!	!	!	!	!	!	!	!	!	!	!	!
=11	=11	=11	=11	=11	=11	=11	=11	=11	=11	=11	=11	=11	=11	=11	=11	=11	=11	=11	=11
8BB-/L	.	.	16f/LL	4aa-\	.	4A-\	.	4B-\	-mni-	4f\	om-	4dd\	om-	.	4.dd\	.	4.ff\	4.ryy	4.ryy
.	.	.	16a-/	.	.	.	.	.	.	.	.	.	.	.	.	.	.	.	.
8BB-/	.	.	16f/	.	.	.	.	.	.	.	.	.	.	.	.	.	.	.	.
.	.	.	16a-/	.	.	.	.	.	.	.	.	.	.	.	.	.	.	.	.
8BB-/J	.	.	16f/	8ff\	.	8A-\	in	8B-\	.	8f\	-ni	8dd\	-ni	.	.	.	.	.	.
.	.	.	16a-/JJ	.	.	.	.	.	.	.	.	.	.	.	.	.	.	.	.
!	!	!	!	!	!	!	!	!	!	!	!	!	!	!	!LO:LB:g=original	!	!LO:LB:g=original	!	!
=12	=12	=12	=12	=12	=12	=12	=12	=12	=12	=12	=12	=12	=12	=12	=12	=12	=12	=12	=12
8BB-/L	.	.	16f/LL	8ff\L	.	4B-\	u-	4B-\	-po-	4f\	po-	4dd\	po-	.	4.dd\	.	4.ff\	4.ryy	4.ryy
.	.	.	16a-/	.	.	.	.	.	.	.	.	.	.	.	.	.	.	.	.
8BB-/	.	.	16f/	16gg\L	.	.	.	.	.	.	.	.	.	.	.	.	.	.	.
.	.	.	16a-/	16ff\	.	.	.	.	.	.	.	.	.	.	.	.	.	.	.
8BB-/J	.	.	16f/	16ee-\	.	8B-\	-num	8B-\	-ten-	8f\	-ten-	8dd\	-ten-	.	.	.	.	.	.
.	.	.	16a-/JJ	16ff\JJ	.	.	.	.	.	.	.	.	.	.	.	.	.	.	.
=13	=13	=13	=13	=13	=13	=13	=13	=13	=13	=13	=13	=13	=13	=13	=13	=13	=13	=13	=13
!LO:SIC:o:s:v:t=brakujący takt!!!!!	!	!	!	!	!	!	!	!	!	!	!	!	!	!	!	!	!	!	!
4.ryy	.	.	16g/LL	4gg\	.	4E-\	.	4B-\	.	4g\	.	4ee-\	-tem	.	4.ee-\	.	4.gg\	4.ryy	4.ryy
.	.	.	16b-/	.	.	.	.	.	.	.	.	.	.	.	.	.	.	.	.
.	.	.	16g/	.	.	.	.	.	.	.	.	.	.	.	.	.	.	.	.
.	.	.	16b-/	.	.	.	.	.	.	.	.	.	.	.	.	.	.	.	.
*	*	*	*	*	*	*	*ij	*	*	*	*	*	*	*	*	*	*	*	*
.	.	.	16g/	8ff\	.	8E-\	in	8B-\	-tem	8g\	-tem	8ee-\	.	.	.	.	.	.	.
.	.	.	16b-/JJ	.	.	.	.	.	.	.	.	.	.	.	.	.	.	.	.
=14	=14	=14	=14	=14	=14	=14	=14	=14	=14	=14	=14	=14	=14	=14	=14	=14	=14	=14	=14
8A-\L	6	.	16f/LL	8ff\L	.	4A-\	u-	4c\	.	4a-\	fac-	4ff\	fac-	.	4.ff\	.	4.aa-\	4.ryy	4.ryy
.	.	.	16a-/	.	.	.	.	.	.	.	.	.	.	.	.	.	.	.	.
8A-\	.	.	16f/	8aa-\	.	.	.	.	.	.	.	.	.	.	.	.	.	.	.
.	.	.	16a-/	.	.	.	.	.	.	.	.	.	.	.	.	.	.	.	.
!	!	!	!	!	!	!	!	!LO:SIC:l:s:v=cae-	!	!	!	!	!	!	!	!	!	!	!
8A-\J	.	.	16f/	8ff\J	.	8A-\	-num	8c\	ce-	8a-\	.	8ff\	cto-	.	.	.	.	.	.
*	*	*	*	*	*	*	*Xij	*	*	*	*	*	*	*	*	*	*	*	*
.	.	.	16a-/JJ	.	.	.	.	.	.	.	.	.	.	.	.	.	.	.	.
=15	=15	=15	=15	=15	=15	=15	=15	=15	=15	=15	=15	=15	=15	=15	=15	=15	=15	=15	=15
8B-\L	.	.	16f/LL	8dd\L	.	4.B-\	De-	4.B-\	-li	4.f\	-to-	4.dd\	-rem	.	4.dd\	.	4.ff\	4.ryy	4.ryy
.	.	.	16a-/	.	.	.	.	.	.	.	.	.	.	.	.	.	.	.	.
8B-\	.	.	16f/	8cc\	.	.	.	.	.	.	.	.	.	.	.	.	.	.	.
.	.	.	16a-/	.	.	.	.	.	.	.	.	.	.	.	.	.	.	.	.
8B-\J	.	.	16f/	8dd\J	.	.	.	.	.	.	.	.	.	.	.	.	.	.	.
.	.	.	16a-/JJ	.	.	.	.	.	.	.	.	.	.	.	.	.	.	.	.
*Xtremolo	*	*	*Xtremolo	*	*	*	*	*	*	*	*	*	*	*	*	*	*	*	*
=16	=16	=16	=16	=16	=16	=16	=16	=16	=16	=16	=16	=16	=16	=16	=16	=16	=16	=16	=16
*	*	*	*	*	*	*	*	*	*	*8\right	*	*	*	*	*	*	*	*	*
!	!	!	!	!	!	!	!	!	!	!LO:TX:a:t=Solo	!	!	!	!	!	!	!	!	!
!LO:TX:a:t=P:problem:mixed beam	!	!	!	!	!	!	!	!LO:TX:a:t=Solo	!	!	!	!	!	!	!	!	!LO:N:vis=4	!	!
8E-\L	.	.	8g/	8ee-\	.	4E-\	-um	8B-\	fa-	8g\	-rem	4.ee-\	caeli	.	8ee-\	.	8gg\	4.ryy	4.ryy
8EE-/J	.	.	8r	8r	.	.	.	8r	.	8r	.	.	.	.	8r	.	8r	.	.
*	*	*	*	*	*	*	*	*	*	*8\left	*	*	*	*	*	*	*	*	*
!	!	!	!	!	!	!	!	!LO:TX:b:i:t=Verte Sub.	!	!	!	!	!	!	!	!	!	!	!
8r	.	.	8e-/	8g/	.	8r	.	8e-\	-cto-	8g\	cae-	.	.	.	8ee-\	.	8gg\	.	.
!	!	!	!	!	!	!	!	!LO:PB:g=original	!	!	!	!	!	!	!	!	!	!	!
=17	=17	=17	=17	=17	=17	=17	=17	=17	=17	=17	=17	=17	=17	=17	=17	=17	=17	=17	=17
*tremolo	*	*	*	*	*	*	*	*	*	*	*	*	*	*	*	*	*	*	*
!LO:TX:rj:a:t=Tarto	!	!	!	!	!	!LO:TX:a:t=8	!	!	!	!	!	!LO:TX:a:t=8	!	!	!LO:TX:rj:a:t=Solo	!	!LO:TX:rj:a:t=Solo	!	!
8BB-/L	.	.	4d/	8f/L	.	1.r	.	4d\	-rem	8f\L	-li	1.r	.	.	4dd\	.	8ff\L	4.ryy	4.ryy
8BB-/	.	.	.	8b-/	.	.	.	.	.	8b-\J	cae-	.	.	.	.	.	8bb-\	.	.
8BB-/J	.	.	8f/	8a-/J	.	.	.	8f\	.	8a-\	-li	.	.	.	8ff\	.	8aa-\J	.	.
=18	=18	=18	=18	=18	=18	=18	=18	=18	=18	=18	=18	=18	=18	=18	=18	=18	=18	=18	=18
!	!	!	!	!	!	!	!	!LO:SIC:l:s:v=cae-	!	!	!	!	!	!	!	!	!	!	!
8BB-/L	.	.	8e-/L	8g/L	.	.	.	8e-\	ce-	8g\L	et	.	.	.	(8ee-\L	.	8gg\L	4.ryy	4.ryy
8BB-/	.	.	8d/	8f/	.	.	.	8d\	.	8f\	.	.	.	.	8dd\	.	8ff\	.	.
8BB-/J	.	.	8e-/J	8g/J	.	.	.	8e-\	-li	8g\J	.	.	.	.	8ee-\J)	.	8gg\J	.	.
=19	=19	=19	=19	=19	=19	=19	=19	=19	=19	=19	=19	=19	=19	=19	=19	=19	=19	=19	=19
8BB-/L	.	.	4d/	8f/L	.	.	.	4d\	et	8f\L	ter-	.	.	.	4dd\	.	8ff\L	4.ryy	4.ryy
8BB-/	.	.	.	8b-/	.	.	.	.	.	8b-\J	.	.	.	.	.	.	8bb-\	.	.
8BB-/J	.	.	8f/	8a-/J	.	.	.	8f\	.	8a-\	-ra	.	.	.	8ff\	.	8aa-\J	.	.
=20	=20	=20	=20	=20	=20	=20	=20	=20	=20	=20	=20	=20	=20	=20	=20	=20	=20	=20	=20
8BB-/L	2	.	4e-/	4g/	.	.	.	4e-\	ter-	4g\	cae-	.	.	.	4ee-\	.	4gg\	4.ryy	4.ryy
!	!	!	!	!LO:TX:a:t=20	!	!	!	!	!	!	!	!	!	!	!	!	!	!	!
8BB-/	.	.	.	.	.	.	.	.	.	.	.	.	.	.	.	.	.	.	.
8BB-/J	.	.	8d/	8f/	.	.	.	8d\	.	8f\	-li	.	.	.	8dd\	.	8ff\	.	.
!	!	!	!	!LO:LB:g=original	!	!	!	!	!	!LO:LB:g=original	!	!	!	!	!	!	!	!	!
=21	=21	=21	=21	=21	=21	=21	=21	=21	=21	=21	=21	=21	=21	=21	=21	=21	=21	=21	=21
8E-\L	.	.	4e-/	4g/	.	1.r	.	4e-\	.	4g\	et	1.r	.	.	4ee-\	.	4gg\	4.ryy	4.ryy
8E-\	.	.	.	.	.	.	.	.	.	.	.	.	.	.	.	.	.	.	.
8E-\J	.	.	8f/	8a-/	.	.	.	8f\	-ra	8a-\	.	.	.	.	8ff\	.	8aa-\	.	.
!	!	!	!LO:LB:g=original	!	!	!	!	!	!	!	!	!	!	!	!	!	!	!	!
=22	=22	=22	=22	=22	=22	=22	=22	=22	=22	=22	=22	=22	=22	=22	=22	=22	=22	=22	=22
8E-\L	.	.	8g/L	8b-/L	.	.	.	8g\	.	8b-\L	ter-	.	.	.	(8gg\L	.	8bb-\L	4.ryy	4.ryy
!	!	!	!	!	!	!	!	!	!	!LO:SIC:l:s:v=-rae	!	!	!	!	!	!	!	!	!
8E-\	.	.	8f/	8a-/	.	.	.	8e-\	et	8a-\J	-ra	.	.	.	8ff\	.	8aa-\	.	.
8E-\J	.	.	8e-/J	8g/J	.	.	.	8d\	.	8g\	.	.	.	.	8ee-\J)	.	8gg\J	.	.
*Xtremolo	*	*	*	*	*	*	*	*	*	*	*	*	*	*	*	*	*	*	*
=23	=23	=23	=23	=23	=23	=23	=23	=23	=23	=23	=23	=23	=23	=23	=23	=23	=23	=23	=23
*	*	*	*	*	*	*	*	*	*	*	*ij	*	*	*	*	*	*	*	*
8BB-\L	.	.	8d/L	8f/L	.	.	.	8d\L	ter-	8f\L	et	.	.	.	(8dd\L	.	8ff\L	4.ryy	4.ryy
8D\	.	.	8f/	8a-/	.	.	.	8f\	.	8a-\	ter-	.	.	.	8ff\	.	8aa-\	.	.
8E-\J	.	.	8e-/J	8g/J	.	.	.	8e-\J	.	8g\J	.	.	.	.	8ee-\J)	.	8gg\J	.	.
=24	=24	=24	=24	=24	=24	=24	=24	=24	=24	=24	=24	=24	=24	=24	=24	=24	=24	=24	=24
!	!	!	!	!	!	!	!	!	!	!LO:SIC:l:s:v=-rae	!	!	!	!	!	!	!	!	!
8B-\L	.	.	4d/	4f/	.	.	.	4d\	-ra	4f\	-ra	.	.	.	4dd\	.	4ff\	4.ryy	4.ryy
*	*	*	*	*	*	*	*	*	*	*	*Xij	*	*	*	*	*	*	*	*
16B-\L	.	.	.	.	.	.	.	.	.	.	.	.	.	.	.	.	.	.	.
16A-\	.	.	.	.	.	.	.	.	.	.	.	.	.	.	.	.	.	.	.
16G\	.	.	8r	8r	.	.	.	8r	.	8r	.	.	.	.	8r	.	8r	.	.
16F\JJ	.	.	.	.	.	.	.	.	.	.	.	.	.	.	.	.	.	.	.
=25	=25	=25	=25	=25	=25	=25	=25	=25	=25	=25	=25	=25	=25	=25	=25	=25	=25	=25	=25
*tremolo	*	*	*tremolo	*	*	*	*	*	*	*	*	*	*	*	*	*	*	*	*
!LO:TX:a:t=T	!	!	!	!	!LO:DY:rj:b	!	!	!	!	!	!	!	!	!	!	!	!	!	!
8E-\L	.	.	16g/LL	4gg/ 4b-/ 4e-/	f	4E-\	pa-	4B-\	cae-	4g\	cae-	4ee-\	cae-	.	4.ee-\	.	4.gg\	4.ryy	4.ryy
.	.	.	16b-/	.	.	.	.	.	.	.	.	.	.	.	.	.	.	.	.
8E-\	.	.	16g/	.	.	.	.	.	.	.	.	.	.	.	.	.	.	.	.
.	.	.	16b-/	.	.	.	.	.	.	.	.	.	.	.	.	.	.	.	.
8E-\J	.	.	16g/	8gg\	.	8E-\	-trem	8B-\	-li	8g\	-li	8ee-\	-li	.	.	.	.	.	.
.	.	.	16b-/JJ	.	.	.	.	.	.	.	.	.	.	.	.	.	.	.	.
!	!	!	!	!	!	!LO:LB:g=original	!	!	!	!	!	!	!	!	!	!	!	!	!
=26	=26	=26	=26	=26	=26	=26	=26	=26	=26	=26	=26	=26	=26	=26	=26	=26	=26	=26	=26
!	!	!	!	!	!	!	!	!	!	!	!	!	!	!LO:HP:b	!	!	!	!	!
8E-\L	.	.	16g/LL	8gg\L	.	4E-\	om-	4B-\	et	4g\	et	4ee-\	et	<	4.ee-\	.	4.gg\	4.ryy	4.ryy
.	.	.	16b-/	.	.	.	.	.	.	.	.	.	.	.	.	.	.	.	.
8E-\	.	.	16g/	16aa-\L	.	.	.	.	.	.	.	.	.	.	.	.	.	.	.
.	.	.	16b-/	16gg\	.	.	.	.	.	.	.	.	.	.	.	.	.	.	.
8E-\J	.	.	16g/	16ff\	.	8E-\	-ni	8B-\	.	8g\	.	8ee-\	.	[[	.	.	.	.	.
.	.	.	16b-/JJ	16gg\JJ	.	.	.	.	.	.	.	.	.	.	.	.	.	.	.
!LO:LB:g=original	!	!	!	!	!	!	!	!	!	!	!	!	!	!	!	!	!	!	!
=27	=27	=27	=27	=27	=27	=27	=27	=27	=27	=27	=27	=27	=27	=27	=27	=27	=27	=27	=27
8BB-/L	.	.	16f/LL	4aa-\	.	4B-\	.	4B-\	ter-	4f\	ter-	4dd\	.	.	4.dd\	.	4.ff\	4.ryy	4.ryy
.	.	.	16a-/	.	.	.	.	.	.	.	.	.	.	.	.	.	.	.	.
8BB-/	.	.	16f/	.	.	.	.	.	.	.	.	.	.	.	.	.	.	.	.
.	.	.	16a-/	.	.	.	.	.	.	.	.	.	.	.	.	.	.	.	.
8BB-/J	.	.	16f/	8ff\	.	8B-\	po-	8B-\	.	8f\	.	8dd\	ter-	.	.	.	.	.	.
.	.	.	16a-/JJ	.	.	.	.	.	.	.	.	.	.	.	.	.	.	.	.
=28	=28	=28	=28	=28	=28	=28	=28	=28	=28	=28	=28	=28	=28	=28	=28	=28	=28	=28	=28
!	!	!	!	!	!	!	!	!	!	!LO:SIC:l:s:v=-rae	!	!	!	!	!	!	!	!	!
8BB-/L	.	.	16f/LL	8ff\L	.	4B-\	.	4B-\	-ra	4f\	-ra	4dd\	.	.	4.dd\	.	4.ff\	4.ryy	4.ryy
.	.	.	16a-/	.	.	.	.	.	.	.	.	.	.	.	.	.	.	.	.
8BB-/	.	.	16f/	16gg\L	.	.	.	.	.	.	.	.	.	.	.	.	.	.	.
.	.	.	16a-/	16ff\	.	.	.	.	.	.	.	.	.	.	.	.	.	.	.
8BB-/J	.	.	16f/	16ee-\	.	8B-\	-ten-	8B-\	.	8f\	.	8dd\	-ra	.	.	.	.	.	.
.	.	.	16a-/JJ	16ff\JJ	.	.	.	.	.	.	.	.	.	.	.	.	.	.	.
!	!	!	!	!	!	!	!	!	!	!	!	!	!	!	!LO:LB:g=original	!	!LO:LB:g=original	!	!
=29	=29	=29	=29	=29	=29	=29	=29	=29	=29	=29	=29	=29	=29	=29	=29	=29	=29	=29	=29
8E-\L	.	.	16g/LL	4gg\	.	4E-\	.	4B-\	vi-	4g\	et	4ee-\	vi-	.	4.ee-\	.	4.gg\	4.ryy	4.ryy
.	.	.	16b-/	.	.	.	.	.	.	.	.	.	.	.	.	.	.	.	.
8E-\	.	.	16g/	.	.	.	.	.	.	.	.	.	.	.	.	.	.	.	.
.	.	.	16b-/	.	.	.	.	.	.	.	.	.	.	.	.	.	.	.	.
8E-\J	.	.	16g/	8ee-\	.	8E-\	-tem	8B-\	-ſi-	8g\	.	8ee-\	.	.	.	.	.	.	.
.	.	.	16b-/JJ	.	.	.	.	.	.	.	.	.	.	.	.	.	.	.	.
!	!	!	!	!	!	!	!	!LO:LB:g=original	!	!	!	!LO:LB:g=original	!	!	!	!	!	!	!
=30	=30	=30	=30	=30	=30	=30	=30	=30	=30	=30	=30	=30	=30	=30	=30	=30	=30	=30	=30
8A-\L	.	.	16a-/LL	8ff\L	.	4A-\	.	4c\	.	4a-\	in	4ff\	.	.	4.ff\	.	4.aa-\	4.ryy	4.ryy
.	.	.	16cc/	.	.	.	.	.	.	.	.	.	.	.	.	.	.	.	.
!	!	!	!	!LO:TX:a:t=30	!	!	!	!	!	!	!	!	!	!	!	!	!	!	!
8A-\	.	.	16a-/	8aa-\	.	.	.	.	.	.	.	.	.	.	.	.	.	.	.
.	.	.	16cc/	.	.	.	.	.	.	.	.	.	.	.	.	.	.	.	.
8A-\J	.	.	16a-/	8ff\J	.	8A-\	fac-	8c\	-bi-	8a-\	.	8ff\	-ſi-	.	.	.	.	.	.
.	.	.	16cc/JJ	.	.	.	.	.	.	.	.	.	.	.	.	.	.	.	.
=31	=31	=31	=31	=31	=31	=31	=31	=31	=31	=31	=31	=31	=31	=31	=31	=31	=31	=31	=31
8B-\L	.	.	16f/LL	8dd\L	.	4.B-\	-to-	4.B-\	-li-	4.f\	unum	4.dd\	-bi-	.	4.dd\	.	4.ff\	4.ryy	4.ryy
.	.	.	16a-/	.	.	.	.	.	.	.	.	.	.	.	.	.	.	.	.
8B-\	.	.	16f/	8cc\	.	.	.	.	.	.	.	.	.	.	.	.	.	.	.
.	.	.	16a-/	.	.	.	.	.	.	.	.	.	.	.	.	.	.	.	.
8B-\J	.	.	16f/	8dd\J	.	.	.	.	.	.	.	.	.	.	.	.	.	.	.
.	.	.	16a-/JJ	.	.	.	.	.	.	.	.	.	.	.	.	.	.	.	.
*Xtremolo	*	*	*	*	*	*	*	*	*	*	*	*	*	*	*	*	*	*	*
=32	=32	=32	=32	=32	=32	=32	=32	=32	=32	=32	=32	=32	=32	=32	=32	=32	=32	=32	=32
*	*	*	*	*	*	*	*	*	*	*4\right	*	*	*	*	*	*	*	*	*
4E-\	.	.	16g/LL	8ee-\L	.	4E-\	-rem:	4B-\	-um	4g\	Dominum	4ee-\	-lium	.	4.ee-\	.	4.gg\	4.ryy	4.ryy
.	.	.	16b-/	.	.	.	.	.	.	.	.	.	.	.	.	.	.	.	.
.	.	.	16g/	8gg\	.	.	.	.	.	.	.	.	.	.	.	.	.	.	.
.	.	.	16b-/	.	.	.	.	.	.	.	.	.	.	.	.	.	.	.	.
8r	.	.	16g/	8ee-\J	.	8r	.	8r	.	8r	.	8r	.	.	.	.	.	.	.
.	.	.	16b-/JJ	.	.	.	.	.	.	.	.	.	.	.	.	.	.	.	.
!	!	!	!	!LO:PB:g=original	!	!	!	!	!	!	!	!	!	!	!	!	!	!	!
=33	=33	=33	=33	=33	=33	=33	=33	=33	=33	=33	=33	=33	=33	=33	=33	=33	=33	=33	=33
!LO:TX:rj:a:t=Solo	!	!	!	!	!	!LO:TX:a:t=15	!	!LO:TX:a:t=15	!	!LO:TX:a:t=15	!	!LO:TX:a:t=15.	!	!	!LO:TX:a:t=15	!	!LO:TX:a:t=15	!	!
4F\	6 3	.	16a-/LL	(8ee-\L	.	4.r	.	4.r	.	4.r	.	4.r	.	.	4.r	.	4.r	4.ryy	4.ryy
.	.	.	16b-/	.	.	.	.	.	.	.	.	.	.	.	.	.	.	.	.
.	.	.	16a-/	8dd\)	.	.	.	.	.	.	.	.	.	.	.	.	.	.	.
.	.	.	16b-/	.	.	.	.	.	.	.	.	.	.	.	.	.	.	.	.
!	!	!	!	!LO:TX:a:t=|	!	!	!	!	!	!	!	!	!	!	!	!	!	!	!
8r	.	.	16a-/	8dd\J	.	.	.	.	.	.	.	.	.	.	.	.	.	.	.
.	.	.	16b-/JJ	.	.	.	.	.	.	.	.	.	.	.	.	.	.	.	.
=34	=34	=34	=34	=34	=34	=34	=34	=34	=34	=34	=34	=34	=34	=34	=34	=34	=34	=34	=34
4D\	6 5	.	16f/LL	(8bb-\L	.	4.r	.	4.r	.	4.r	.	4.r	.	.	4.r	.	4.r	4.ryy	4.ryy
.	.	.	16b-/	.	.	.	.	.	.	.	.	.	.	.	.	.	.	.	.
.	.	.	16f/	8aa-\)	.	.	.	.	.	.	.	.	.	.	.	.	.	.	.
.	.	.	16b-/	.	.	.	.	.	.	.	.	.	.	.	.	.	.	.	.
!	!	!	!	!LO:TX:a:t=|	!	!	!	!	!	!	!	!	!	!	!	!	!	!	!
8r	.	.	16f/	8gg\J	.	.	.	.	.	.	.	.	.	.	.	.	.	.	.
.	.	.	16b-/JJ	.	.	.	.	.	.	.	.	.	.	.	.	.	.	.	.
!	!	!	!LO:LB:g=original	!	!	!	!	!	!	!	!	!	!	!	!	!	!	!	!
=35	=35	=35	=35	=35	=35	=35	=35	=35	=35	=35	=35	=35	=35	=35	=35	=35	=35	=35	=35
4E-\	.	.	16g/LL	(8ff\L	.	4.r	.	4.r	.	4.r	.	4.r	.	.	4.r	.	4.r	4.ryy	4.ryy
.	.	.	16b-/	.	.	.	.	.	.	.	.	.	.	.	.	.	.	.	.
.	.	.	16g/	8ee-\)	.	.	.	.	.	.	.	.	.	.	.	.	.	.	.
.	.	.	16b-/	.	.	.	.	.	.	.	.	.	.	.	.	.	.	.	.
!	!	!	!	!LO:TX:a:t=|	!	!	!	!	!	!	!	!	!	!	!	!	!	!	!
8r	.	.	16g/	8ee-\J	.	.	.	.	.	.	.	.	.	.	.	.	.	.	.
.	.	.	16b-/JJ	.	.	.	.	.	.	.	.	.	.	.	.	.	.	.	.
*	*	*	*Xtremolo	*	*	*	*	*	*	*	*	*	*	*	*	*	*	*	*
=36	=36	=36	=36	=36	=36	=36	=36	=36	=36	=36	=36	=36	=36	=36	=36	=36	=36	=36	=36
8E-\L	x 3	.	8g/L	(8ee-\L	.	4.r	.	4.r	.	4.r	.	4.r	.	.	4.r	.	4.r	4.ryy	4.ryy
8F\	6- 3	.	8a-/	8dd\)	.	.	.	.	.	.	.	.	.	.	.	.	.	.	.
!	!	!	!	!LO:TX:a:t=|	!	!	!	!	!	!	!	!	!	!	!	!	!	!	!
8G\J	5 3	.	8b-/J	8dd-X\J	.	.	.	.	.	.	.	.	.	.	.	.	.	.	.
=37	=37	=37	=37	=37	=37	=37	=37	=37	=37	=37	=37	=37	=37	=37	=37	=37	=37	=37	=37
4A-\	.	.	4.cc\	(8cc\L	.	4.r	.	4.r	.	4.r	.	4.r	.	.	4.r	.	4.r	4.ryy	4.ryy
.	.	.	.	8ddn\)	.	.	.	.	.	.	.	.	.	.	.	.	.	.	.
!	!	!	!	!LO:TX:a:t=|	!	!	!	!	!	!	!	!	!	!	!	!	!	!	!
8r	.	.	.	8ee-\J	.	.	.	.	.	.	.	.	.	.	.	.	.	.	.
=38	=38	=38	=38	=38	=38	=38	=38	=38	=38	=38	=38	=38	=38	=38	=38	=38	=38	=38	=38
4.An\	.	.	4.cc\	8ff\L	.	4.r	.	4.r	.	4.r	.	4.r	.	.	4.r	.	4.r	4.ryy	4.ryy
.	.	.	.	8aa-\	.	.	.	.	.	.	.	.	.	.	.	.	.	.	.
.	.	.	.	8ff\J	.	.	.	.	.	.	.	.	.	.	.	.	.	.	.
=39	=39	=39	=39	=39	=39	=39	=39	=39	=39	=39	=39	=39	=39	=39	=39	=39	=39	=39	=39
4B-\	.	.	8g/L	8ee-\L	.	4.r	.	4.r	.	4.r	.	4.r	.	.	4.r	.	4.r	4.ryy	4.ryy
.	.	.	8f/	8dd\	.	.	.	.	.	.	.	.	.	.	.	.	.	.	.
8r	.	.	16e-/L	8b-\J	.	.	.	.	.	.	.	.	.	.	.	.	.	.	.
.	.	.	16d/JJ	.	.	.	.	.	.	.	.	.	.	.	.	.	.	.	.
=40	=40	=40	=40	=40	=40	=40	=40	=40	=40	=40	=40	=40	=40	=40	=40	=40	=40	=40	=40
*	*	*	*tremolo	*	*	*	*	*	*	*	*	*	*	*	*	*	*	*	*
4c\	.	.	16e-/LL	8an/L	.	4.r	.	4.r	.	4.r	.	4.r	.	.	4.r	.	4.r	4.ryy	4.ryy
.	.	.	16f/	.	.	.	.	.	.	.	.	.	.	.	.	.	.	.	.
!	!	!	!	!LO:TX:a:t=40	!	!	!	!	!	!	!	!	!	!	!	!	!	!	!
.	.	.	16e-/	8g/	.	.	.	.	.	.	.	.	.	.	.	.	.	.	.
.	.	.	16f/	.	.	.	.	.	.	.	.	.	.	.	.	.	.	.	.
8r	6\	.	16e-/	8a/J	.	.	.	.	.	.	.	.	.	.	.	.	.	.	.
.	.	.	16f/JJ	.	.	.	.	.	.	.	.	.	.	.	.	.	.	.	.
=41	=41	=41	=41	=41	=41	=41	=41	=41	=41	=41	=41	=41	=41	=41	=41	=41	=41	=41	=41
4B-\	.	.	16d/LL	4b-\	.	4.r	.	4.r	.	4.r	.	4.r	.	.	4.r	.	4.r	4.ryy	4.ryy
.	.	.	16f/	.	.	.	.	.	.	.	.	.	.	.	.	.	.	.	.
.	.	.	16d/	.	.	.	.	.	.	.	.	.	.	.	.	.	.	.	.
.	.	.	16f/	.	.	.	.	.	.	.	.	.	.	.	.	.	.	.	.
8r	.	.	16d/	8dd\	.	.	.	.	.	.	.	.	.	.	.	.	.	.	.
.	.	.	16f/JJ	.	.	.	.	.	.	.	.	.	.	.	.	.	.	.	.
=42	=42	=42	=42	=42	=42	=42	=42	=42	=42	=42	=42	=42	=42	=42	=42	=42	=42	=42	=42
4An\	6 5	.	16c/LL	(8ff\L	.	4.r	.	4.r	.	4.r	.	4.r	.	.	4.r	.	4.r	4.ryy	4.ryy
.	.	.	16f/	.	.	.	.	.	.	.	.	.	.	.	.	.	.	.	.
.	.	.	16c/	8een\)	.	.	.	.	.	.	.	.	.	.	.	.	.	.	.
.	.	.	16f/	.	.	.	.	.	.	.	.	.	.	.	.	.	.	.	.
8r	.	.	16c/	8ee-X\J	.	.	.	.	.	.	.	.	.	.	.	.	.	.	.
.	.	.	16f/JJ	.	.	.	.	.	.	.	.	.	.	.	.	.	.	.	.
=43	=43	=43	=43	=43	=43	=43	=43	=43	=43	=43	=43	=43	=43	=43	=43	=43	=43	=43	=43
4B-\	.	.	16d/LL	4dd\	.	4.r	.	4.r	.	4.r	.	4.r	.	.	4.r	.	4.r	4.ryy	4.ryy
.	.	.	16f/	.	.	.	.	.	.	.	.	.	.	.	.	.	.	.	.
.	.	.	16d/	.	.	.	.	.	.	.	.	.	.	.	.	.	.	.	.
.	.	.	16f/	.	.	.	.	.	.	.	.	.	.	.	.	.	.	.	.
8r	.	.	16d/	8b-\	.	.	.	.	.	.	.	.	.	.	.	.	.	.	.
.	.	.	16f/JJ	.	.	.	.	.	.	.	.	.	.	.	.	.	.	.	.
!LO:LB:g=original	!	!	!	!LO:LB:g=original	!	!	!	!	!	!	!	!	!	!	!	!	!	!	!
=44	=44	=44	=44	=44	=44	=44	=44	=44	=44	=44	=44	=44	=44	=44	=44	=44	=44	=44	=44
4c\	6\ 3	.	16e-/LL	8an/L	.	4.r	.	4.r	.	4.r	.	4.r	.	.	4.r	.	4.r	4.ryy	4.ryy
.	.	.	16f/	.	.	.	.	.	.	.	.	.	.	.	.	.	.	.	.
.	.	.	16e-/	8f/	.	.	.	.	.	.	.	.	.	.	.	.	.	.	.
.	.	.	16f/	.	.	.	.	.	.	.	.	.	.	.	.	.	.	.	.
8r	.	.	16e-/	8a/J	.	.	.	.	.	.	.	.	.	.	.	.	.	.	.
.	.	.	16f/JJ	.	.	.	.	.	.	.	.	.	.	.	.	.	.	.	.
=45	=45	=45	=45	=45	=45	=45	=45	=45	=45	=45	=45	=45	=45	=45	=45	=45	=45	=45	=45
4B-\	.	.	16d/LL	4b-\	.	4.r	.	4.r	.	4.r	.	4.r	.	.	4.r	.	4.r	4.ryy	4.ryy
.	.	.	16f/	.	.	.	.	.	.	.	.	.	.	.	.	.	.	.	.
.	.	.	16d/	.	.	.	.	.	.	.	.	.	.	.	.	.	.	.	.
.	.	.	16f/	.	.	.	.	.	.	.	.	.	.	.	.	.	.	.	.
8r	.	.	16d/	8dd\	.	.	.	.	.	.	.	.	.	.	.	.	.	.	.
.	.	.	16f/JJ	.	.	.	.	.	.	.	.	.	.	.	.	.	.	.	.
*	*	*	*Xtremolo	*	*	*	*	*	*	*	*	*	*	*	*	*	*	*	*
=46	=46	=46	=46	=46	=46	=46	=46	=46	=46	=46	=46	=46	=46	=46	=46	=46	=46	=46	=46
4An\	6 5	.	16c/LL	8ff\L	.	4.r	.	4.r	.	4.r	.	4.r	.	.	4.r	.	4.r	4.ryy	4.ryy
.	.	.	16f/	.	.	.	.	.	.	.	.	.	.	.	.	.	.	.	.
.	.	.	16c/	8ee-\	.	.	.	.	.	.	.	.	.	.	.	.	.	.	.
.	.	.	16f/	.	.	.	.	.	.	.	.	.	.	.	.	.	.	.	.
!LO:TX:a:t=x	!	!	!	!	!	!	!	!	!	!	!	!	!	!	!	!	!	!	!
8B-\	.	.	16d/	8dd\J	.	.	.	.	.	.	.	.	.	.	.	.	.	.	.
.	.	.	16f/JJ	.	.	.	.	.	.	.	.	.	.	.	.	.	.	.	.
!	!	!	!LO:LB:g=original	!	!	!	!	!	!	!	!	!	!	!	!	!	!	!	!
=47	=47	=47	=47	=47	=47	=47	=47	=47	=47	=47	=47	=47	=47	=47	=47	=47	=47	=47	=47
!LO:TX:a:t=P:problem:mixed beam	!	!	!	!	!	!	!	!	!	!	!	!	!	!	!	!	!	!	!
8F\L	4	.	8b-/L	8dd\L	.	4.r	.	4.r	.	4.r	.	4.r	.	.	4.r	.	4.r	4.ryy	4.ryy
8FF/	.	.	8an/	8cc\	.	.	.	.	.	.	.	.	.	.	.	.	.	.	.
8F\J	n	.	8g/J	8f\J	.	.	.	.	.	.	.	.	.	.	.	.	.	.	.
!	!	!	!	!	!	!	!	!	!	!LO:LB:g=original	!	!	!	!	!	!	!	!	!
=48	=48	=48	=48	=48	=48	=48	=48	=48	=48	=48	=48	=48	=48	=48	=48	=48	=48	=48	=48
*tremolo	*	*	*tremolo	*	*	*	*	*	*	*4\left	*	*	*	*	*	*	*	*	*
!LO:TX:a:t=Tutti	!	!	!	!	!	!	!	!	!	!	!	!	!	!	!	!	!	!	!
8B-\L	.	.	16d/LL	8b-\L	.	4B-\	ge-	4B-\	ge-	4f\	ge-	4dd\	ge-	.	4.dd\	.	4.ff\	4.ryy	4.ryy
.	.	.	16f/	.	.	.	.	.	.	.	.	.	.	.	.	.	.	.	.
8B-\	.	.	16d/	8dd\	.	.	.	.	.	.	.	.	.	.	.	.	.	.	.
.	.	.	16f/	.	.	.	.	.	.	.	.	.	.	.	.	.	.	.	.
8B-\J	.	.	16d/	8ff\J	.	8B-\	-ni-	8B-\	-ni-	8f\	-ni-	8dd\	-ni-	.	.	.	.	.	.
.	.	.	16f/JJ	.	.	.	.	.	.	.	.	.	.	.	.	.	.	.	.
=49	=49	=49	=49	=49	=49	=49	=49	=49	=49	=49	=49	=49	=49	=49	=49	=49	=49	=49	=49
8B-\L	2	.	16e-/LL	4ff\	.	4B-\	.	4B-\	.	4g\	.	4ee-\	-tum	.	4.ee-\	.	4.gg\	4.ryy	4.ryy
.	.	.	16g/	.	.	.	.	.	.	.	.	.	.	.	.	.	.	.	.
8B-\	.	.	16e-/	.	.	.	.	.	.	.	.	.	.	.	.	.	.	.	.
.	.	.	16g/	.	.	.	.	.	.	.	.	.	.	.	.	.	.	.	.
8B-\J	.	.	16e-/	8ee-\	.	8B-\	-tum	8B-\	-tum	8g\	-tum	8ee-\	.	.	.	.	.	.	.
.	.	.	16g/JJ	.	.	.	.	.	.	.	.	.	.	.	.	.	.	.	.
=50	=50	=50	=50	=50	=50	=50	=50	=50	=50	=50	=50	=50	=50	=50	=50	=50	=50	=50	=50
8B-\L	7n 2	.	16c/LL	(8cc\L	.	4B-\	non	4B-\	.	4an\	non	4cc\	non	.	4.cc\	.	4.aa\	4.ryy	4.ryy
.	.	.	16an/	.	.	.	.	.	.	.	.	.	.	.	.	.	.	.	.
!	!	!	!	!LO:TX:a:t=50	!	!	!	!	!	!	!	!	!	!	!	!	!	!	!
8B-\	.	.	16c/	8aan\)	.	.	.	.	.	.	.	.	.	.	.	.	.	.	.
.	.	.	16an/	.	.	.	.	.	.	.	.	.	.	.	.	.	.	.	.
!	!	!	!	!LO:TX:a:t=|	!	!	!	!	!	!	!	!	!	!	!	!	!	!	!
8B-\J	.	.	16c/	8aa\J	.	8B-\	.	8B-\	non	8a\	.	8cc\	.	.	.	.	.	.	.
.	.	.	16an/JJ	.	.	.	.	.	.	.	.	.	.	.	.	.	.	.	.
=51	=51	=51	=51	=51	=51	=51	=51	=51	=51	=51	=51	=51	=51	=51	=51	=51	=51	=51	=51
8B-\L	8 3	.	16d/LL	4bb-\	.	8.B-\	.	8.B-\	.	8b-\	fac-	8.dd\	.	.	4.dd\	.	4.bb-\	4.ryy	4.ryy
.	.	.	16f/	.	.	.	.	.	.	.	.	.	.	.	.	.	.	.	.
8B-\	.	.	16d/	.	.	.	.	.	.	8b-\	.	.	.	.	.	.	.	.	.
.	.	.	16f/	.	.	16B-\	fac-	16B-\	fac-	.	.	16dd\	fac-	.	.	.	.	.	.
!	!	!	!	!	!	!LO:N:vis=4	!	!	!	!	!	!	!	!	!	!	!	!	!
8B-\J	.	.	16d/	8ff\	.	8B-\	.	8B-\	.	8b-\	-tum	8dd\	.	.	.	.	.	.	.
.	.	.	16f/JJ	.	.	.	.	.	.	.	.	.	.	.	.	.	.	.	.
=52	=52	=52	=52	=52	=52	=52	=52	=52	=52	=52	=52	=52	=52	=52	=52	=52	=52	=52	=52
8B-\L	.	.	16d/LL	(8dd\L	.	4.B-\	-tum	4.B-\	-tum	4.f\	con-	4.dd\	-tum	.	4.dd\	.	4.ff\	4.ryy	4.ryy
.	.	.	16f/	.	.	.	.	.	.	.	.	.	.	.	.	.	.	.	.
8B-\	.	.	16d/	8ff\)	.	.	.	.	.	.	.	.	.	.	.	.	.	.	.
.	.	.	16f/	.	.	.	.	.	.	.	.	.	.	.	.	.	.	.	.
!	!	!	!	!LO:TX:a:t=|	!	!	!	!	!	!	!	!	!	!	!	!	!	!	!
8B-\J	.	.	16d/	8ff\J	.	.	.	.	.	.	.	.	.	.	.	.	.	.	.
.	.	.	16f/JJ	.	.	.	.	.	.	.	.	.	.	.	.	.	.	.	.
=53	=53	=53	=53	=53	=53	=53	=53	=53	=53	=53	=53	=53	=53	=53	=53	=53	=53	=53	=53
8B-\L	2	.	16e-/LL	4gg\	.	4B-\	con-	4B-\	con-	4g\	-ſub-	4ee-\	con-	.	4.ff\	.	4.gg\	4.ryy	4.ryy
.	.	.	16g/	.	.	.	.	.	.	.	.	.	.	.	.	.	.	.	.
8B-\	.	.	16e-/	.	.	.	.	.	.	.	.	.	.	.	.	.	.	.	.
.	.	.	16g/	.	.	.	.	.	.	.	.	.	.	.	.	.	.	.	.
8B-\J	.	.	16e-/	8ee-\	.	8B-\	.	8B-\	.	8g\	.	8ee-\	.	.	.	.	.	.	.
.	.	.	16g/JJ	.	.	.	.	.	.	.	.	.	.	.	.	.	.	.	.
=54	=54	=54	=54	=54	=54	=54	=54	=54	=54	=54	=54	=54	=54	=54	=54	=54	=54	=54	=54
8B-\L	7n 2	.	16c/LL	(8cc\L	.	4B-\	-ſub-	4B-\	-ſub-	4an\	-ſtan-	4cc\	-ſub-	.	4.cc\	.	4.bb-\	4.ryy	4.ryy
.	.	.	16An/	.	.	.	.	.	.	.	.	.	.	.	.	.	.	.	.
8B-\	.	.	16c/	8aan\)	.	.	.	.	.	.	.	.	.	.	.	.	.	.	.
.	.	.	16An/	.	.	.	.	.	.	.	.	.	.	.	.	.	.	.	.
!	!	!	!	!LO:TX:a:t=|	!	!	!	!	!	!	!	!	!	!	!	!	!	!	!
8B-\J	.	.	16c/	8aa\J	.	8B-\	.	8B-\	.	8a\	.	8cc\	.	.	.	.	.	.	.
.	.	.	16An/JJ	.	.	.	.	.	.	.	.	.	.	.	.	.	.	.	.
!	!	!	!	!	!	!LO:LB:g=original	!	!	!	!	!	!	!	!	!	!	!	!	!
=55	=55	=55	=55	=55	=55	=55	=55	=55	=55	=55	=55	=55	=55	=55	=55	=55	=55	=55	=55
8B-\L	8 3	.	16d/LL	8bb-\L	.	4B-\	-ſtan-	4B-\	-ſtan-	4b-\	-ti-	4dd\	-ſtan-	.	4.dd\	.	4.ff\	4.ryy	4.ryy
.	.	.	16f/	.	.	.	.	.	.	.	.	.	.	.	.	.	.	.	.
8B-\	.	.	16d/	8ff\	.	.	.	.	.	.	.	.	.	.	.	.	.	.	.
.	.	.	16f/	.	.	.	.	.	.	.	.	.	.	.	.	.	.	.	.
8B-\J	.	.	16d/	8dd\J	.	8B-\	.	8B-\	.	8b-\	-a-	8dd\	.	.	.	.	.	.	.
.	.	.	16f/JJ	.	.	.	.	.	.	.	.	.	.	.	.	.	.	.	.
=56!|:	=56	=56	=56	=56	=56!|:	=56	=56	=56	=56	=56	=56	=56	=56	=56	=56	=56	=56	=56!|:	=56!|:
*tremolo	*	*	*	*	*	*	*	*	*	*	*	*	*	*	*	*	*	*	*
8An\L	6 5	.	16c/LL	(8ff\L	.	4An\	-tia-	4f\	.	4cc\	-lem	4ee-\	-tia-	.	4.cc\	.	4.ee-\	4.ryy	4.ryy
.	.	.	16f/	.	.	.	.	.	.	.	.	.	.	.	.	.	.	.	.
8An\	.	.	16c/	8ee-\)	.	.	.	.	.	.	.	.	.	.	.	.	.	.	.
.	.	.	16f/	.	.	.	.	.	.	.	.	.	.	.	.	.	.	.	.
!	!	!	!	!LO:TX:a:t=|	!	!	!	!	!	!	!	!	!	!	!	!	!	!	!
8An\J	.	.	16c/	8cc\J	.	8A\	.	8f\	-ti-	8cc\	.	8ee-\	.	.	.	.	.	.	.
.	.	.	16f/JJ	.	.	.	.	.	.	.	.	.	.	.	.	.	.	.	.
!	!	!	!	!LO:LB:g=original	!	!	!	!	!	!	!	!LO:LB:g=original	!	!	!	!	!	!	!
=57	=57	=57	=57	=57	=57	=57	=57	=57	=57	=57	=57	=57	=57	=57	=57	=57	=57	=57	=57
8B-\L	.	.	16d/LL	(8dd\L	.	8B-\	-lem	8f\	-a-	8b-\	pa-	8dd\L	.	.	4.b-\	.	4.dd\	4.ryy	4.ryy
.	.	.	16f/	.	.	.	.	.	.	.	.	.	.	.	.	.	.	.	.
8B-\	.	.	16d/	8ff\)	.	8B-\	.	8f\	.	8b-\	-tri	8dd\	.	.	.	.	.	.	.
.	.	.	16f/	.	.	.	.	.	.	.	.	.	.	.	.	.	.	.	.
!	!	!	!	!LO:TX:a:t=|	!	!	!	!	!	!	!	!	!	!	!	!	!	!	!
8B-\J	.	.	16d/	8ff\J	.	8B-\	.	8f\	-lem	8b-\	per	8dd\J	-lem	.	.	.	.	.	.
.	.	.	16f/JJ	.	.	.	.	.	.	.	.	.	.	.	.	.	.	.	.
!	!	!	!	!	!	!	!	!LO:LB:g=original	!	!	!	!	!	!	!	!	!	!	!
=58:|!	=58	=58	=58	=58	=58:|!	=58	=58	=58	=58	=58	=58	=58	=58	=58	=58	=58	=58	=58:|!	=58:|!
!LO:SIC:v:t=takty 57-58 zapisane repetycją	!	!	!	!	!	!	!	!	!	!	!	!	!	!	!	!	!	!	!
8An\Lyy	6yy 5yy	.	16c/LL	(8ff\L	.	4An\	pa-	4f\	pa-	4cc\	quem	4ee-\	pa-	.	4.cc\	.	4.ee-\	4.ryy	4.ryy
.	.	.	16f/	.	.	.	.	.	.	.	.	.	.	.	.	.	.	.	.
8An\yy	.	.	16c/	8ee-\)	.	.	.	.	.	.	.	.	.	.	.	.	.	.	.
.	.	.	16f/	.	.	.	.	.	.	.	.	.	.	.	.	.	.	.	.
8An\Jyy	.	.	16c/	8cc\J	.	8A\	-tri	8f\	-tri	8cc\	.	8ee-\	.	.	.	.	.	.	.
.	.	.	16f/JJ	.	.	.	.	.	.	.	.	.	.	.	.	.	.	.	.
=59	=59	=59	=59	=59	=59	=59	=59	=59	=59	=59	=59	=59	=59	=59	=59	=59	=59	=59	=59
8B-\Lyy	.	.	16d/LL	(8dd\L	.	4B-\	.	4f\	.	4b-\	om-	4dd\	-tri	.	4.b-\	.	4.dd\	4.ryy	4.ryy
.	.	.	16f/	.	.	.	.	.	.	.	.	.	.	.	.	.	.	.	.
8B-\yy	.	.	16d/	8ff\)	.	.	.	.	.	.	.	.	.	.	.	.	.	.	.
.	.	.	16f/	.	.	.	.	.	.	.	.	.	.	.	.	.	.	.	.
8B-\Jyy	.	.	16d/	8ff\J	.	8B-\	per	8f\	per	8b-\	-ni-	8dd\	per	.	.	.	.	.	.
.	.	.	16f/JJ	.	.	.	.	.	.	.	.	.	.	.	.	.	.	.	.
!	!	!	!	!	!	!	!	!	!	!LO:LB:g=original	!	!	!	!	!	!	!	!	!
=60	=60	=60	=60	=60	=60	=60	=60	=60	=60	=60	=60	=60	=60	=60	=60	=60	=60	=60	=60
*Xtremolo	*	*	*	*	*	*	*	*	*	*	*	*	*	*	*	*	*	*	*
8E-\L	8	.	16c/LL	(8ee-\L	.	4E-\	.	4g\	.	4cc\	-a	8.ee-\L	quem	.	4.cc\	.	4.ee-\	4.ryy	4.ryy
.	.	.	16e-/	.	.	.	.	.	.	.	.	.	.	.	.	.	.	.	.
8E-\	.	.	16c/	8cc\)	.	.	.	.	.	.	.	.	.	.	.	.	.	.	.
.	.	.	16e-/	.	.	.	.	.	.	.	.	16ee-\Jk	.	.	.	.	.	.	.
!	!	!	!	!LO:TX:a:t=60	!	!	!	!	!	!	!	!	!	!	!	!	!	!	!
!	!	!	!	!LO:TX:a:t=|	!	!	!	!	!	!	!	!	!	!	!	!	!	!	!
8F\J	n	.	16c/	8an\J	.	8E-\	quem	8f\	.	8cc\	o-	8ee-\	.	.	.	.	.	.	.
.	.	.	16e-/JJ	.	.	.	.	.	.	.	.	.	.	.	.	.	.	.	.
*	*	*	*Xtremolo	*	*	*	*	*	*	*	*	*	*	*	*	*	*	*	*
!	!	!	!LO:LB:g=original	!	!	!	!	!	!	!	!	!	!	!	!	!	!	!	!
=61	=61	=61	=61	=61	=61	=61	=61	=61	=61	=61	=61	=61	=61	=61	=61	=61	=61	=61	=61
!	!	!	!	!	!	!	!	!	!	!	!	!LO:N:vis=4.	!	!	!	!	!	!	!
8G\L	.	.	16B-/LL	8b-\L	.	4G\	.	4g\	quem	4b-\	-mnia	4dd\	.	.	4.b-\	.	4.dd\	4.ryy	4.ryy
.	.	.	16d/	.	.	.	.	.	.	.	.	.	.	.	.	.	.	.	.
8G\	.	.	16B-/	8dd\	.	.	.	.	.	.	.	.	.	.	.	.	.	.	.
.	.	.	16d/	.	.	.	.	.	.	.	.	.	.	.	.	.	.	.	.
8D\J	.	.	16f/	8ff\J	.	8D\	o-	8f\	.	8b-\	.	8dd\	o-	.	.	.	.	.	.
.	.	.	16a-/JJ	.	.	.	.	.	.	.	.	.	.	.	.	.	.	.	.
=62	=62	=62	=62	=62	=62	=62	=62	=62	=62	=62	=62	=62	=62	=62	=62	=62	=62	=62	=62
!LO:TX:a:t=P:problem:mixed beam	!	!	!	!	!	!	!	!	!	!	!	!	!	!	!	!	!	!	!
8E-\L	.	.	8cc\L	16gg\LL	.	4E-\	-mnia	4g\	.	8cc\L	.	8ee-\L	.	.	8cc\L	.	8ee-\L	4.ryy	4.ryy
.	.	.	.	16ee-\JJ	.	.	.	.	.	.	.	.	.	.	.	.	.	.	.
!	!	!	!	!LO:TX:a:t=Solo	!	!	!	!	!	!LO:SIC:l:s:v=Sae-	!	!	!	!	!	!	!	!	!
8F/	.	.	8b-\	8dd\L	.	.	.	.	.	8b-\	Se-	8dd\	.	.	8b-\	.	8dd\	.	.
8FF/J	.	.	8an\J	8cc\J	.	8F\	.	8f\	o-	8an\J	-cu-	8cc\J	-mnia	.	8a\J	.	8cc\J	.	.
!LO:LB:g=original	!	!	!	!	!	!	!	!	!	!	!	!	!	!	!	!	!LO:LB:g=original	!	!
=63	=63	=63	=63	=63	=63	=63	=63	=63	=63	=63	=63	=63	=63	=63	=63	=63	=63	=63	=63
4BB-/	.	.	4b-\	8dd\L	.	4BB-/	Sunt	4f\	-mnia	4b-\	-la	4dd\	.	.	4b-\	.	4dd\	4.ryy	4.ryy
.	.	.	.	8bb-\	.	.	.	.	.	.	.	.	.	.	.	.	.	.	.
8r	.	.	8r	8bb-\J	.	8r	.	8r	.	8r	.	8r	.	.	8r	.	8r	.	.
!	!	!	!	!	!	!	!	!	!	!	!	!	!	!	!LO:LB:g=original	!	!	!	!
=64	=64	=64	=64	=64	=64	=64	=64	=64	=64	=64	=64	=64	=64	=64	=64	=64	=64	=64	=64
!LO:TX:a:t=1.	!	!	!LO:TX:a:t=1.	!LO:TX:a:t=|	!	!LO:TX:a:t=21.	!	!LO:TX:a:t=21	!	!LO:TX:a:t=21	!	!LO:TX:a:t=21.	!	!	!LO:TX:a:t=15	!	!LO:TX:a:t=15	!	!
4.r	.	.	4.r	16bb-\LL	.	4.r	.	4.r	.	4.r	.	4.r	.	.	4.r	.	4.r	4.ryy	4.ryy
!	!	!	!	!LO:TX:a:t=|	!	!	!	!	!	!	!	!	!	!	!	!	!	!	!
.	.	.	.	16gg\	.	.	.	.	.	.	.	.	.	.	.	.	.	.	.
!	!	!	!	!LO:TX:a:t=|	!	!	!	!	!	!	!	!	!	!	!	!	!	!	!
.	.	.	.	16een\	.	.	.	.	.	.	.	.	.	.	.	.	.	.	.
!	!	!	!	!LO:TX:a:t=|	!	!	!	!	!	!	!	!	!	!	!	!	!	!	!
.	.	.	.	16cc\	.	.	.	.	.	.	.	.	.	.	.	.	.	.	.
!	!	!	!	!LO:TX:a:t=|	!	!	!	!	!	!	!	!	!	!	!	!	!	!	!
.	.	.	.	16b-\	.	.	.	.	.	.	.	.	.	.	.	.	.	.	.
!	!	!	!	!LO:TX:a:t=|	!	!	!	!	!	!	!	!	!	!	!	!	!	!	!
.	.	.	.	16g\JJ	.	.	.	.	.	.	.	.	.	.	.	.	.	.	.
=65	=65	=65	=65	=65	=65	=65	=65	=65	=65	=65	=65	=65	=65	=65	=65	=65	=65	=65	=65
*	*	*	*tremolo	*	*	*	*	*	*	*	*	*	*	*	*	*	*	*	*
!	!	!LO:DY:rj:a	!	!	!	!	!	!	!	!	!	!	!	!	!	!	!	!	!
4.B-\	4 2	p	8c/L	8en/L	.	4.r	.	4.r	.	4.r	.	4.r	.	.	4.r	.	4.r	4.ryy	4.ryy
.	.	.	8c/	8e/	.	.	.	.	.	.	.	.	.	.	.	.	.	.	.
.	.	.	8c/J	8e/J	.	.	.	.	.	.	.	.	.	.	.	.	.	.	.
=66	=66	=66	=66	=66	=66	=66	=66	=66	=66	=66	=66	=66	=66	=66	=66	=66	=66	=66	=66
4.B-\	.	.	8c/L	8e-/L	.	4.r	.	4.r	.	4.r	.	4.r	.	.	4.r	.	4.r	4.ryy	4.ryy
.	.	.	8c/	8f/	.	.	.	.	.	.	.	.	.	.	.	.	.	.	.
.	.	.	8c/J	8g/J	.	.	.	.	.	.	.	.	.	.	.	.	.	.	.
*	*	*	*Xtremolo	*	*	*	*	*	*	*	*	*	*	*	*	*	*	*	*
=67	=67	=67	=67	=67	=67	=67	=67	=67	=67	=67	=67	=67	=67	=67	=67	=67	=67	=67	=67
!	!	!	!	!LO:TX:t=P:problem:mixed beam	!	!	!	!	!	!	!	!	!	!	!	!	!	!	!
4.A-X\	6	.	4c/	8f/L	.	4.r	.	4.r	.	4.r	.	4.r	.	.	4.r	.	4.r	4.ryy	4.ryy
.	.	.	.	8aa-X\	.	.	.	.	.	.	.	.	.	.	.	.	.	.	.
.	.	.	8r	8aa-\J	.	.	.	.	.	.	.	.	.	.	.	.	.	.	.
!	!	!	!	!LO:LB:g=original	!	!	!	!	!	!	!	!	!	!	!	!	!	!	!
=68	=68	=68	=68	=68	=68	=68	=68	=68	=68	=68	=68	=68	=68	=68	=68	=68	=68	=68	=68
!LO:TX:a:t=1.	!	!	!LO:TX:a:t=1	!LO:TX:a:t=|	!	!	!	!	!	!	!	!	!	!	!	!	!	!	!
4.r	.	.	4.r	16aa-\LL	.	4.r	.	4.r	.	4.r	.	4.r	.	.	4.r	.	4.r	4.ryy	4.ryy
!	!	!	!	!LO:TX:a:t=|	!	!	!	!	!	!	!	!	!	!	!	!	!	!	!
.	.	.	.	16ff\	.	.	.	.	.	.	.	.	.	.	.	.	.	.	.
!	!	!	!	!LO:TX:a:t=|	!	!	!	!	!	!	!	!	!	!	!	!	!	!	!
.	.	.	.	16dd\	.	.	.	.	.	.	.	.	.	.	.	.	.	.	.
!	!	!	!	!LO:TX:a:t=|	!	!	!	!	!	!	!	!	!	!	!	!	!	!	!
.	.	.	.	16b-\	.	.	.	.	.	.	.	.	.	.	.	.	.	.	.
!	!	!	!	!LO:TX:a:t=|	!	!	!	!	!	!	!	!	!	!	!	!	!	!	!
.	.	.	.	16a-\	.	.	.	.	.	.	.	.	.	.	.	.	.	.	.
!	!	!	!	!LO:TX:a:t=|	!	!	!	!	!	!	!	!	!	!	!	!	!	!	!
.	.	.	.	16f\JJ	.	.	.	.	.	.	.	.	.	.	.	.	.	.	.
=69	=69	=69	=69	=69	=69	=69	=69	=69	=69	=69	=69	=69	=69	=69	=69	=69	=69	=69	=69
*	*	*	*tremolo	*	*	*	*	*	*	*	*	*	*	*	*	*	*	*	*
4.A-X\	4 2	.	8B-/L	8d/L	.	4.r	.	4.r	.	4.r	.	4.r	.	.	4.r	.	4.r	4.ryy	4.ryy
.	.	.	8B-/	8d/	.	.	.	.	.	.	.	.	.	.	.	.	.	.	.
.	.	.	8B-/J	8d/J	.	.	.	.	.	.	.	.	.	.	.	.	.	.	.
=70	=70	=70	=70	=70	=70	=70	=70	=70	=70	=70	=70	=70	=70	=70	=70	=70	=70	=70	=70
4.A-\	.	.	8B-/L	8d/L	.	4.r	.	4.r	.	4.r	.	4.r	.	.	4.r	.	4.r	4.ryy	4.ryy
!	!	!	!	!LO:TX:a:t=70	!	!	!	!	!	!	!	!	!	!	!	!	!	!	!
.	.	.	8B-/	8e-/	.	.	.	.	.	.	.	.	.	.	.	.	.	.	.
.	.	.	8B-/J	8f/J	.	.	.	.	.	.	.	.	.	.	.	.	.	.	.
*	*	*	*Xtremolo	*	*	*	*	*	*	*	*	*	*	*	*	*	*	*	*
=71	=71	=71	=71	=71	=71	=71	=71	=71	=71	=71	=71	=71	=71	=71	=71	=71	=71	=71	=71
!	!	!	!	!LO:TX:t=P:problem:mixed beam	!	!	!	!	!	!	!	!	!	!	!	!	!	!	!
4.G\	6	.	4B-/	8e-/L	.	4.r	.	4.r	.	4.r	.	4.r	.	.	4.r	.	4.r	4.ryy	4.ryy
.	.	.	.	8ee-\	.	.	.	.	.	.	.	.	.	.	.	.	.	.	.
.	.	.	8r	8ee-\J	.	.	.	.	.	.	.	.	.	.	.	.	.	.	.
=72	=72	=72	=72	=72	=72	=72	=72	=72	=72	=72	=72	=72	=72	=72	=72	=72	=72	=72	=72
4.G\	6	.	4.B-/	16ee-\LL	.	4.r	.	4.r	.	4.r	.	4.r	.	.	4.r	.	4.r	4.ryy	4.ryy
.	.	.	.	16dd\	.	.	.	.	.	.	.	.	.	.	.	.	.	.	.
.	.	.	.	16ee-\	.	.	.	.	.	.	.	.	.	.	.	.	.	.	.
.	5	.	.	16ff\	.	.	.	.	.	.	.	.	.	.	.	.	.	.	.
.	.	.	.	16ee-\	.	.	.	.	.	.	.	.	.	.	.	.	.	.	.
.	.	.	.	16dd-X\JJ	.	.	.	.	.	.	.	.	.	.	.	.	.	.	.
=73	=73	=73	=73	=73	=73	=73	=73	=73	=73	=73	=73	=73	=73	=73	=73	=73	=73	=73	=73
4.A-\	.	.	4.c/	8cc\L	.	4.r	.	4.r	.	4.r	.	4.r	.	.	4.r	.	4.r	4.ryy	4.ryy
.	.	.	.	8ddn\	.	.	.	.	.	.	.	.	.	.	.	.	.	.	.
.	.	.	.	8ee-\J	.	.	.	.	.	.	.	.	.	.	.	.	.	.	.
=74	=74	=74	=74	=74	=74	=74	=74	=74	=74	=74	=74	=74	=74	=74	=74	=74	=74	=74	=74
4.An\	6	.	4.c/	8gg\L	.	4.r	.	4.r	.	4.r	.	4.r	.	.	4.r	.	4.r	4.ryy	4.ryy
.	.	.	.	8ff\	.	.	.	.	.	.	.	.	.	.	.	.	.	.	.
.	5	.	.	8ee-\J	.	.	.	.	.	.	.	.	.	.	.	.	.	.	.
=75	=75	=75	=75	=75	=75	=75	=75	=75	=75	=75	=75	=75	=75	=75	=75	=75	=75	=75	=75
4B-\	4	.	4.f/	(8ee-\L	.	4.r	.	4.r	.	4.r	.	4.r	.	.	4.r	.	4.r	4.ryy	4.ryy
.	3	.	.	8dd\)	.	.	.	.	.	.	.	.	.	.	.	.	.	.	.
!	!	!	!	!LO:TX:a:t=|	!	!	!	!	!	!	!	!	!	!	!	!	!	!	!
8A-X\	_	.	.	8dd\J	.	.	.	.	.	.	.	.	.	.	.	.	.	.	.
=76	=76	=76	=76	=76	=76	=76	=76	=76	=76	=76	=76	=76	=76	=76	=76	=76	=76	=76	=76
4.G\	x	.	4.B-/	(8ee-\L	.	4.r	.	4.r	.	4.r	.	4.r	.	.	4.r	.	4.r	4.ryy	4.ryy
.	.	.	.	8dd\)	.	.	.	.	.	.	.	.	.	.	.	.	.	.	.
!	!	!	!	!LO:TX:a:t=|	!	!	!	!	!	!	!	!	!	!	!	!	!	!	!
.	.	.	.	8dd-X\J	.	.	.	.	.	.	.	.	.	.	.	.	.	.	.
=77	=77	=77	=77	=77	=77	=77	=77	=77	=77	=77	=77	=77	=77	=77	=77	=77	=77	=77	=77
4.A-\	.	.	4.c/	8cc\L	.	4.r	.	4.r	.	4.r	.	4.r	.	.	4.r	.	4.r	4.ryy	4.ryy
.	.	.	.	8ddn\	.	.	.	.	.	.	.	.	.	.	.	.	.	.	.
.	.	.	.	8ee-\J	.	.	.	.	.	.	.	.	.	.	.	.	.	.	.
=78	=78	=78	=78	=78	=78	=78	=78	=78	=78	=78	=78	=78	=78	=78	=78	=78	=78	=78	=78
4.B-\	.	.	4.A-/	8ff\L	.	4.r	.	4.r	.	4.r	.	4.r	.	.	4.r	.	4.r	4.ryy	4.ryy
.	.	.	.	8ee-\	.	.	.	.	.	.	.	.	.	.	.	.	.	.	.
.	.	.	.	8dd\J	.	.	.	.	.	.	.	.	.	.	.	.	.	.	.
!	!	!	!	!LO:LB:g=original	!	!	!	!	!	!	!	!	!	!	!	!	!	!	!
=79	=79	=79	=79	=79	=79	=79	=79	=79	=79	=79	=79	=79	=79	=79	=79	=79	=79	=79	=79
4E-\	.	.	4G/	4ee-\	.	4.r	.	4.r	.	4.r	.	4.r	.	.	8r	.	8r	4.ryy	4.ryy
!	!	!	!	!	!	!	!	!	!	!	!	!	!	!	!LO:TX:a:t=Solo	!	!	!	!
.	.	.	.	.	.	.	.	.	.	.	.	.	.	.	8ee-\L	.	8gg\L	.	.
8r	.	.	8r	8r	.	.	.	.	.	.	.	.	.	.	8ee-\J	.	8gg\J	.	.
!	!	!	!LO:LB:g=original	!	!	!	!	!	!	!	!	!	!	!	!	!	!	!	!
=80	=80	=80	=80	=80	=80	=80	=80	=80	=80	=80	=80	=80	=80	=80	=80	=80	=80!|:	=80	=80
!LO:TX:a:t=1.	!	!	!LO:TX:a:t=1.	!LO:TX:a:t=1.	!	!	!	!	!	!	!	!	!	!	!	!	!	!	!
!	!	!	!	!LO:TX:a:t=80	!	!	!	!	!	!	!	!	!	!	!	!	!LO:TX:rj:a:t=Solo	!	!
4.r	.	.	4.r	4.r	.	4.r	.	4.r	.	4.r	.	4.r	.	.	(16ee-\LL	.	(16gg\LL	4.ryy	4.ryy
.	.	.	.	.	.	.	.	.	.	.	.	.	.	.	16ff\	.	16aa-\	.	.
.	.	.	.	.	.	.	.	.	.	.	.	.	.	.	16ee-\	.	16gg\	.	.
.	.	.	.	.	.	.	.	.	.	.	.	.	.	.	16dd\JJ)	.	16ff\	.	.
.	.	.	.	.	.	.	.	.	.	.	.	.	.	.	8ee-\	.	16gg\)	.	.
.	.	.	.	.	.	.	.	.	.	.	.	.	.	.	.	.	16aa-\JJ	.	.
!LO:LB:g=original	!	!	!	!	!	!	!	!	!	!	!	!	!	!	!	!	!	!	!
=81	=81	=81	=81	=81	=81	=81	=81	=81	=81	=81	=81	=81	=81	=81	=81	=81	=81	=81	=81
!LO:TX:a:t=Pedale	!	!	!	!	!	!	!	!	!	!	!	!	!	!	!	!	!	!	!
4.BB-/	.	.	8B-/L	8d'/L	.	4.r	.	4.r	.	4.r	.	4.r	.	.	(8dd\L	.	(8bb-\L	4.ryy	4.ryy
.	.	.	8c/	8e-'/	.	.	.	.	.	.	.	.	.	.	8ee-\	.	8aa\)	.	.
.	.	.	8d/J	8f'/J	.	.	.	.	.	.	.	.	.	.	8ff\J)	.	8aa-X\J	.	.
=82	=82	=82	=82	=82	=82	=82	=82	=82	=82	=82	=82	=82	=82	=82	=82	=82	=82:|!	=82	=82
!	!	!	!	!	!	!	!	!	!	!	!	!	!	!	!	!	!LO:SIC:v:t=takty82-82 zapisane repetycją	!	!
4.BB-/	.	.	8e-/L	8e-/L	.	4.r	.	4.r	.	4.r	.	4.r	.	.	(16ee-\LL	.	(yy16gg\LLyy	4.ryy	4.ryy
.	.	.	.	.	.	.	.	.	.	.	.	.	.	.	16ff\	.	16aa-\yy	.	.
.	.	.	8d/	8e-/	.	.	.	.	.	.	.	.	.	.	16ee-\	.	16gg\yy	.	.
.	.	.	.	.	.	.	.	.	.	.	.	.	.	.	16dd\JJ)	.	16ff\yy	.	.
.	.	.	8c/J	8e-/J	.	.	.	.	.	.	.	.	.	.	8ee-\	.	16gg\)yy	.	.
.	.	.	.	.	.	.	.	.	.	.	.	.	.	.	.	.	16aa-\JJyy	.	.
=83	=83	=83	=83	=83	=83	=83	=83	=83	=83	=83	=83	=83	=83	=83	=83	=83	=83	=83	=83
4.BB-/	.	.	8B-/L	8d/L	.	4.r	.	4.r	.	4.r	.	4.r	.	.	8dd\L	.	(yy8bb-\Lyy	4.ryy	4.ryy
.	.	.	8c/	8e-/	.	.	.	.	.	.	.	.	.	.	8ee-\	.	8aa\)yy	.	.
.	.	.	8d/J	8f/J	.	.	.	.	.	.	.	.	.	.	8ff\J	.	8aa-X\Jyy	.	.
=84	=84	=84	=84	=84	=84	=84	=84	=84	=84	=84	=84	=84	=84	=84	=84	=84	=84	=84	=84
*	*	*	*	*tremolo	*	*	*	*	*	*	*	*	*	*	*	*	*	*	*
4.BB-/	.	.	8e-/L	8e-/L	.	4.r	.	4.r	.	4.r	.	4.r	.	.	(16ee-\LL	.	16gg\LL	4.ryy	4.ryy
.	.	.	.	.	.	.	.	.	.	.	.	.	.	.	16ff\	.	16aa-\	.	.
.	.	.	8e-/	8e-/	.	.	.	.	.	.	.	.	.	.	16ee-\	.	16gg\	.	.
.	.	.	.	.	.	.	.	.	.	.	.	.	.	.	16dd\J)	.	16ee-\	.	.
.	.	.	8c/J	8e-/J	.	.	.	.	.	.	.	.	.	.	8ee-\J	.	16gg\	.	.
.	.	.	.	.	.	.	.	.	.	.	.	.	.	.	.	.	16aa-\JJ	.	.
*	*	*	*	*Xtremolo	*	*	*	*	*	*	*	*	*	*	*	*	*	*	*
=85	=85	=85	=85	=85	=85	=85	=85	=85	=85	=85	=85	=85	=85	=85	=85	=85	=85	=85	=85
!	!	!	!	!	!	!LO:TX:a:t=1	!	!LO:TX:a:t=1	!	!LO:TX:a:t=1	!	!LO:TX:a:t=1.	!	!	!	!	!	!	!
4.BB-;/	.	.	4d;/	4.f;/	.	4.r;	.	4.r;	.	4.r;	.	4.r;	.	.	4.dd;\	.	4.bb-;\	4.ryy	4.ryy
.	.	.	8r	.	.	.	.	.	.	.	.	.	.	.	.	.	.	.	.
=86	=86	=86	=86	=86	=86	=86	=86	=86	=86	=86	=86	=86	=86	=86	=86	=86	=86	=86	=86
!LO:TX:a:t=1.	!	!	!	!	!	!LO:TX:a:t=9	!	!LO:TX:a:t=9	!	!LO:TX:a:t=1	!	!	!	!	!	!	!	!	!
4.r	.	.	8B-/L	8d/L	.	1.r	.	1.r	.	4.r	.	4.r	.	.	8dd\L	.	8bb-\L	4.ryy	4.ryy
.	.	.	8c/	8e-/	.	.	.	.	.	.	.	.	.	.	8ee-\	.	8aa\	.	.
.	.	.	8d/J	8f/J	.	.	.	.	.	.	.	.	.	.	8ff\J	.	8aa-X\J	.	.
=87	=87	=87	=87	=87	=87	=87	=87	=87	=87	=87	=87	=87	=87	=87	=87	=87	=87	=87	=87
*tremolo	*	*	*	*	*	*	*	*	*	*	*	*	*	*	*	*	*	*	*
!	!	!LO:DY:a:t=pie	!	!	!	!	!	!	!	!	!	!	!	!	!	!	!	!	!
8E-\L	.	p	4e-/	4g/	.	.	.	.	.	4g\	qui	4ee-\	qui	.	4ee-\	.	4gg\	4.ryy	4.ryy
8E-\	.	.	.	.	.	.	.	.	.	.	.	.	.	.	.	.	.	.	.
8E-\J	.	.	8e-/	8g/	.	.	.	.	.	8g\	.	8ee-\	.	.	8ee-\	.	8gg\	.	.
=88	=88	=88	=88	=88	=88	=88	=88	=88	=88	=88	=88	=88	=88	=88	=88	=88	=88	=88	=88
8E-\L	.	.	8e-/L	8g/L	.	.	.	.	.	8g\L	pro-	8ee-\L	pro-	.	8ee-\L	.	8gg\L	4.ryy	4.ryy
8E-\	.	.	8d/	8f/	.	.	.	.	.	8f\	.	8dd\	.	.	8dd\	.	8ff\	.	.
8E-\J	.	.	8e-/J	8g/J	.	.	.	.	.	8g\J	-pter	8ee-\J	.	.	8ee-\J	.	8gg\J	.	.
=89	=89	=89	=89	=89	=89	=89	=89	=89	=89	=89	=89	=89	=89	=89	=89	=89	=89	=89	=89
8BB-/L	.	.	4f/	4a-/	.	.	.	.	.	4a-\	.	4ff\	-pter	.	4ff\	.	4aa-\	4.ryy	4.ryy
8BB-/	.	.	.	.	.	.	.	.	.	.	.	.	.	.	.	.	.	.	.
8BB-/J	.	.	8d/	8f/	.	.	.	.	.	8f\	.	8dd\	.	.	8ee-\	.	8ff\	.	.
!	!	!	!	!	!	!	!	!	!	!	!	!LO:LB:g=original	!	!	!	!	!LO:LB:g=original	!	!
=90	=90	=90	=90	=90	=90	=90	=90	=90	=90	=90	=90	=90	=90	=90	=90	=90	=90	=90	=90
8BB-/L	.	.	8d/L	8f/L	.	1.r	.	1.r	.	8f\L	nos	8dd\L	nos	.	8dd\L	.	8ff\L	4.ryy	4.ryy
!	!	!	!	!LO:TX:a:t=90	!	!	!	!	!	!	!	!	!	!	!	!	!	!	!
8BB-/	.	.	8c/	8e-/	.	.	.	.	.	8e-\	.	8cc\	.	.	8cc\	.	8ee-\	.	.
8BB-/J	.	.	8d/J	8f/J	.	.	.	.	.	8f\J	.	8dd\J	.	.	8dd\J	.	8ff\J	.	.
!	!	!	!	!	!	!	!	!	!	!	!	!	!	!	!LO:LB:g=original	!	!	!	!
=91	=91	=91	=91	=91	=91	=91	=91	=91	=91	=91	=91	=91	=91	=91	=91	=91	=91	=91	=91
8E-\L	4 2	.	4e-/	4g/	.	.	.	.	.	4g\	ho-	4ee-\	ho-	.	4ee-\	.	4gg\	4.ryy	4.ryy
8E-\	.	.	.	.	.	.	.	.	.	.	.	.	.	.	.	.	.	.	.
8E-\J	.	.	8f/	8a-/	.	.	.	.	.	8a-\	-mi-	8ff\	.	.	8ff\	.	8aa-\	.	.
!	!	!	!	!LO:LB:g=original	!	!	!	!	!	!	!	!	!	!	!	!	!	!	!
=92	=92	=92	=92	=92	=92	=92	=92	=92	=92	=92	=92	=92	=92	=92	=92	=92	=92	=92	=92
8E-\L	.	.	8g/L	8b-/L	.	.	.	.	.	8b-\L	-nes	8gg\L	-mi-	.	8gg\L	.	8bb-\L	4.ryy	4.ryy
8E-\	.	.	8f/	8g/	.	.	.	.	.	8g\	.	8ee-\	-nes	.	8ee-\	.	8gg\	.	.
8E-\J	.	.	8g/J	8a-/J	.	.	.	.	.	8a-\J	.	8gg\J	.	.	8ff\J	.	8aa-\J	.	.
!	!	!	!LO:LB:g=original	!	!	!	!	!	!	!	!	!	!	!	!	!	!	!	!
=93	=93	=93	=93	=93	=93	=93	=93	=93	=93	=93	=93	=93	=93	=93	=93	=93	=93	=93	=93
8E-\L	.	.	8g/L	8b-/L	.	.	.	.	.	8b-\L	et	8gg\L	et	.	8gg\L	.	8gg\L	4.ryy	4.ryy
8E-\	.	.	8f/	8a-/	.	.	.	.	.	8a-\	.	8ff\	pro-	.	8ff\	.	8aa-\	.	.
8E-\J	.	.	8e-/J	8g/J	.	.	.	.	.	8g\J	prop-	8ee-\J	.	.	8ee-\J	.	8gg\J	.	.
*Xtremolo	*	*	*	*	*	*	*	*	*	*	*	*	*	*	*	*	*	*	*
!	!	!	!	!	!	!	!	!	!	!LO:LB:g=original	!	!	!	!	!	!	!	!	!
=94	=94	=94	=94	=94	=94	=94	=94	=94	=94	=94	=94	=94	=94	=94	=94	=94	=94	=94	=94
8B-\L	.	.	8e-/L	8g/L	.	4.r	.	4.r	.	8a-\L	-ter	8ee-\L	-pter	.	8ee-\L	.	8gg\L	4.ryy	4.ryy
16B-\L	.	.	8d/J	8f/J	.	.	.	.	.	8f\J	.	8dd\J	.	.	8dd\J	.	8ff\J	.	.
16A-\	.	.	.	.	.	.	.	.	.	.	.	.	.	.	.	.	.	.	.
16G\	.	.	8r	8r	.	.	.	.	.	8r	.	8r	.	.	8r	.	8r	.	.
16F\JJ	.	.	.	.	.	.	.	.	.	.	.	.	.	.	.	.	.	.	.
=95	=95	=95	=95	=95	=95	=95	=95	=95	=95	=95	=95	=95	=95	=95	=95	=95	=95	=95	=95
*tremolo	*	*	*tremolo	*	*	*4\right	*	*	*	*	*	*	*	*	*	*	*	*	*
!LO:TX:a:t=Tutti	!	!	!	!	!LO:DY:rj:b	!	!	!	!	!	!	!	!	!	!	!	!	!	!
8E-\L	.	.	16g/LL	4gg/ 4b-/ 4e-/	f	4E-\	qui	4B-\	qui	4g\	no-	4ee-\	nos-	.	4.ee-\	.	4.gg\	4.ryy	4.ryy
.	.	.	16b-/	.	.	.	.	.	.	.	.	.	.	.	.	.	.	.	.
8E-\	.	.	16g/	.	.	.	.	.	.	.	.	.	.	.	.	.	.	.	.
.	.	.	16b-/	.	.	.	.	.	.	.	.	.	.	.	.	.	.	.	.
*	*	*	*	*	*	*8\right	*	*	*	*	*	*	*	*	*	*	*	*	*
8E-\J	.	.	16g/	8gg\	.	8E-\	.	8B-\	.	8g\	-stran	8ee-\	-tram	.	.	.	.	.	.
.	.	.	16b-/JJ	.	.	.	.	.	.	.	.	.	.	.	.	.	.	.	.
!	!	!	!	!	!	!LO:LB:g=original	!	!	!	!	!	!	!	!	!	!	!	!	!
=96	=96	=96	=96	=96	=96	=96	=96	=96	=96	=96	=96	=96	=96	=96	=96	=96	=96	=96	=96
*	*	*	*	*	*	*4\left	*	*	*	*	*	*	*	*	*	*	*	*	*
8E-\L	.	.	16g/LL	8gg\L	.	4E-\	prop-	4B-\	pro-	4g\	.	4ee-\	.	.	4.ee-\	.	4.gg\	4.ryy	4.ryy
.	.	.	16b-/	.	.	.	.	.	.	.	.	.	.	.	.	.	.	.	.
8E-\	.	.	16g/	16aa-\L	.	.	.	.	.	.	.	.	.	.	.	.	.	.	.
.	.	.	16b-/	16gg\	.	.	.	.	.	.	.	.	.	.	.	.	.	.	.
*	*	*	*	*	*	*8\left	*	*	*	*	*	*	*	*	*	*	*	*	*
8E-\J	.	.	16g/	16ff\	.	8E-\	.	8B-\	.	8g\	.	8ee-\	.	.	.	.	.	.	.
.	.	.	16b-/JJ	16gg\JJ	.	.	.	.	.	.	.	.	.	.	.	.	.	.	.
!LO:LB:g=original	!	!	!	!	!	!	!	!	!	!	!	!	!	!	!	!	!	!	!
=97	=97	=97	=97	=97	=97	=97	=97	=97	=97	=97	=97	=97	=97	=97	=97	=97	=97	=97	=97
8BB-/L	.	.	16f/LL	4aa-\	.	4B-\	-ter	4B-\	-pter	4f\	ſa-	4dd\	ſa-	.	4.dd\	.	4.ff\	4.ryy	4.ryy
.	.	.	16a-/	.	.	.	.	.	.	.	.	.	.	.	.	.	.	.	.
8BB-/	.	.	16f/	.	.	.	.	.	.	.	.	.	.	.	.	.	.	.	.
.	.	.	16a-/	.	.	.	.	.	.	.	.	.	.	.	.	.	.	.	.
8BB-/J	.	.	16f/	8ff\	.	8B-\	.	8B-\	.	8f\	-lu-	8dd\	-lu-	.	.	.	.	.	.
.	.	.	16a-/JJ	.	.	.	.	.	.	.	.	.	.	.	.	.	.	.	.
=98	=98	=98	=98	=98	=98	=98	=98	=98	=98	=98	=98	=98	=98	=98	=98	=98	=98	=98	=98
8BB-/L	.	.	16f/LL	8ff\L	.	4B-\	nos	4B-\	nos	4f\	-tem	4dd\	-tem	.	4.dd\	.	4.ff\	4.ryy	4.ryy
.	.	.	16a-/	.	.	.	.	.	.	.	.	.	.	.	.	.	.	.	.
8BB-/	.	.	16f/	16gg\L	.	.	.	.	.	.	.	.	.	.	.	.	.	.	.
.	.	.	16a-/	16ff\	.	.	.	.	.	.	.	.	.	.	.	.	.	.	.
8BB-/J	.	.	16f/	16ee-\	.	8B-\	.	8B-\	.	8f\	.	8dd\	.	.	.	.	.	.	.
.	.	.	16a-/JJ	16ff\JJ	.	.	.	.	.	.	.	.	.	.	.	.	.	.	.
=99	=99	=99	=99	=99	=99	=99	=99	=99	=99	=99	=99	=99	=99	=99	=99	=99	=99	=99	=99
8E-\L	.	.	16g/LL	4gg\	.	4E-\	.	4B-\	ho-	4g\	de-	4ee-\	de-	.	4.ee-\	.	4.gg\	4.ryy	4.ryy
.	.	.	16b-/	.	.	.	.	.	.	.	.	.	.	.	.	.	.	.	.
8E-\	.	.	16g/	.	.	.	.	.	.	.	.	.	.	.	.	.	.	.	.
.	.	.	16b-/	.	.	.	.	.	.	.	.	.	.	.	.	.	.	.	.
8E-\J	.	.	16g/	8ee-\	.	8E-\	ho-	8B-\	-mi-	8g\	-ſcen-	8ee-\	-ſcen-	.	.	.	.	.	.
.	.	.	16b-/JJ	.	.	.	.	.	.	.	.	.	.	.	.	.	.	.	.
=100	=100	=100	=100	=100	=100	=100	=100	=100	=100	=100	=100	=100	=100	=100	=100	=100	=100	=100	=100
8A-\L	6	.	16a-\LL	8ff\L	.	4A-\	-mi-	4c\	-nes	4a-\	.	4ff\	.	.	4.ff\	.	4.aa-\	4.ryy	4.ryy
.	.	.	16cc\	.	.	.	.	.	.	.	.	.	.	.	.	.	.	.	.
!	!	!	!	!LO:TX:a:t=100	!	!	!	!	!	!	!	!	!	!	!	!	!	!	!
8A-\	.	.	16a-\	8aa-\	.	.	.	.	.	.	.	.	.	.	.	.	.	.	.
.	.	.	16cc\	.	.	.	.	.	.	.	.	.	.	.	.	.	.	.	.
8A-\J	.	.	16a-\	8ff\J	.	8A-\	-nes	8c\	.	8a-\	.	8ff\	.	.	.	.	.	.	.
.	.	.	16cc\JJ	.	.	.	.	.	.	.	.	.	.	.	.	.	.	.	.
!	!	!	!	!	!	!	!	!LO:LB:g=original	!	!	!	!	!	!	!	!	!	!	!
=101	=101	=101	=101	=101	=101	=101	=101	=101	=101	=101	=101	=101	=101	=101	=101	=101	=101	=101	=101
8B-\L	.	.	16e-/LL	8dd\L	.	4.B-\	.	4.B-\	et	4.f\	-dit	4.dd\	-dit	.	4.dd\	.	4.ff\	4.ryy	4.ryy
.	.	.	16a-/	.	.	.	.	.	.	.	.	.	.	.	.	.	.	.	.
8B-\	.	.	16e-/	8cc\	.	.	.	.	.	.	.	.	.	.	.	.	.	.	.
.	.	.	16a-/	.	.	.	.	.	.	.	.	.	.	.	.	.	.	.	.
8B-\J	.	.	16e-/	8dd\J	.	.	.	.	.	.	.	.	.	.	.	.	.	.	.
.	.	.	16a-/JJ	.	.	.	.	.	.	.	.	.	.	.	.	.	.	.	.
*Xtremolo	*	*	*Xtremolo	*	*	*	*	*	*	*	*	*	*	*	*	*	*	*	*
!	!	!	!	!	!	!	!	!	!	!	!	!LO:LB:g=original	!	!	!	!	!	!	!
=102	=102	=102	=102	=102	=102	=102	=102	=102	=102	=102	=102	=102	=102	=102	=102	=102	=102	=102	=102
!LO:TX:a:t=P:problem:mixed beam	!	!	!	!	!	!	!	!	!	!	!	!LO:SIC:o:v:t=brak taktów 102-140-brak kawałka kartki	!	!	!	!	!	!	!
8E-\L	.	.	8g/	8ee-\	.	4E-\	homines	8B-\	pro-	8g\	.	4.ryy	.	.	8ee-\	.	8gg\	4.ryy	4.ryy
8EE-/J	.	.	8r	8r	.	.	.	8r	.	8r	.	.	.	.	8r	.	8r	.	.
!	!	!	!	!	!	!	!	!LO:TX:a:t=Solo	!	!	!	!	!	!	!LO:TX:a:t=Solo	!	!	!	!
8r	.	.	8e-/	8g/	.	8r	.	(8e-\	.	8g\	Et	.	.	.	8ee-\	.	8gg\	.	.
=103	=103	=103	=103	=103	=103	=103	=103	=103	=103	=103	=103	=103	=103	=103	=103	=103	=103	=103	=103
*tremolo	*	*	*	*	*	*	*	*	*	*	*	*	*	*	*	*	*	*	*
!LO:TX:a:t=tarto	!	!	!	!	!	!LO:TX:a:t=8	!	!	!	!	!	!	!	!	!	!	!LO:TX:rj:a:t=Solo	!	!
8BB-/L	.	.	4d/	8f/L	.	1.r	.	4d\)	-pter	8f\L	in-	4.ryy	.	.	4dd\	.	8ff\L	4.ryy	4.ryy
8BB-/	.	.	.	8b-/	.	.	.	.	.	8b-\J	.	.	.	.	.	.	(8bb-\	.	.
8BB-/J	.	.	8f/	8a-/J	.	.	.	8f\	.	8a-\	-car-	.	.	.	8ff\	.	8aa-\J)	.	.
!	!	!	!	!LO:LB:g=original	!	!	!	!	!	!	!	!	!	!	!	!	!	!	!
=104	=104	=104	=104	=104	=104	=104	=104	=104	=104	=104	=104	=104	=104	=104	=104	=104	=104	=104	=104
8BB-/L	.	.	8e-/L	8g/L	.	.	.	8e-\	nos-	8g\L	.	4.ryy	.	.	8ee-\L	.	(8gg\L	4.ryy	4.ryy
8BB-/	.	.	8d/	8f/	.	.	.	8e-\	.	8f\	.	.	.	.	8dd\	.	8ff\	.	.
8BB-/J	.	.	8e-/J	8g/J	.	.	.	8e-\	-stram	8g\J	-na-	.	.	.	8ee-\J	.	8gg\J)	.	.
=105	=105	=105	=105	=105	=105	=105	=105	=105	=105	=105	=105	=105	=105	=105	=105	=105	=105	=105	=105
!	!	!	!LO:SIC:t:v=brakujące takty	!	!	!	!	!	!	!	!	!	!	!	!	!	!	!	!
8BB-/L	.	.	4.ryy	8f/L	.	.	.	4d\	.	8f\L	-tus	4.ryy	.	.	4dd\	.	(8ff\L	4.ryy	4.ryy
8BB-/	.	.	.	8b-/	.	.	.	.	.	8b-\J	.	.	.	.	.	.	8bb-\)	.	.
8BB-/J	.	.	.	8a-/J	.	.	.	8f\	.	8a-\	.	.	.	.	8ff\	.	(8aa-\J	.	.
!	!	!	!	!	!	!	!	!	!	!LO:LB:g=original	!	!	!	!	!LO:LB:g=original	!	!	!	!
=106	=106	=106	=106	=106	=106	=106	=106	=106	=106	=106	=106	=106	=106	=106	=106	=106	=106	=106	=106
8BB-/L	.	.	4.ryy	4g/	.	.	.	4e-\	ſa-	4g\	est	4.ryy	.	.	4ee-\	.	4gg\	4.ryy	4.ryy
8BB-/	.	.	.	.	.	.	.	.	.	.	.	.	.	.	.	.	.	.	.
8BB-/J	.	.	.	8f/	.	.	.	8d\	-lu-	8f\	.	.	.	.	8dd\	.	8ff\)	.	.
!	!	!	!	!	!	!	!	!	!	!	!	!	!	!	!	!	!LO:LB:g=original	!	!
=107	=107	=107	=107	=107	=107	=107	=107	=107	=107	=107	=107	=107	=107	=107	=107	=107	=107	=107	=107
8E-\L	.	.	4d/	4g/	.	1.r	.	4e-\	-tem	4g\	de	4.ryy	.	.	4ee-\	.	4gg\	4.ryy	4.ryy
8E-\	.	.	.	.	.	.	.	.	.	.	.	.	.	.	.	.	.	.	.
8E-\J	.	.	8f/	8a-/	.	.	.	8f\	.	8a-\	.	.	.	.	8ff\	.	8aa-\	.	.
!	!	!	!LO:LB:g=original	!	!	!	!	!	!	!	!	!	!	!	!	!	!	!	!
=108	=108	=108	=108	=108	=108	=108	=108	=108	=108	=108	=108	=108	=108	=108	=108	=108	=108	=108	=108
!	!	!	!LO:TX:a:t=x	!	!	!	!	!	!	!	!	!	!	!	!	!	!	!	!
8E-\L	.	.	8g/L	8b-/L	.	.	.	8g\L	.	8b-\L	Spi-	4.ryy	.	.	8gg\L	.	8bb-\L	4.ryy	4.ryy
8E-\	.	.	8f/	8a-/	.	.	.	8f\J	.	8a-\	.	.	.	.	8ff\	.	8aa-\	.	.
8E-\J	.	.	8e-/J	8g/J	.	.	.	8e-\	de-	8g\J	-ri-	.	.	.	8ee-\J	.	8gg\J	.	.
*Xtremolo	*	*	*	*	*	*	*	*	*	*	*	*	*	*	*	*	*	*	*
=109	=109	=109	=109	=109	=109	=109	=109	=109	=109	=109	=109	=109	=109	=109	=109	=109	=109	=109	=109
8BB-\L	.	.	8d/L	8f/L	.	.	.	8d\L	-ſcen-	8f\L	-tu-	4.ryy	.	.	8dd\L	.	8ff\L	4.ryy	4.ryy
8D\	.	.	8f/	8a-/	.	.	.	8f\	.	8a-\	.	.	.	.	8ff\	.	8aa-\	.	.
8E-\J	.	.	8e-/J	8g/J	.	.	.	8e-\J	.	8g\J	-i	.	.	.	8ee-\J	.	8gg\J	.	.
=110	=110	=110	=110	=110	=110	=110	=110	=110	=110	=110	=110	=110	=110	=110	=110	=110	=110	=110	=110
!	!	!	!	!LO:TX:a:t=110	!	!	!	!	!	!	!	!	!	!	!	!	!	!	!
8B-\L	.	.	4d/	4f/	.	.	.	4d\	-dit	4f\	San-	4.ryy	.	.	4dd\	.	4ff\	4.ryy	4.ryy
16B-\L	.	.	.	.	.	.	.	.	.	.	.	.	.	.	.	.	.	.	.
16A-\	.	.	.	.	.	.	.	.	.	.	.	.	.	.	.	.	.	.	.
16G\	.	.	8r	8r	.	.	.	8r	.	8r	.	.	.	.	8r	.	8r	.	.
16F\JJ	.	.	.	.	.	.	.	.	.	.	.	.	.	.	.	.	.	.	.
=111	=111	=111	=111	=111	=111	=111	=111	=111	=111	=111	=111	=111	=111	=111	=111	=111	=111	=111	=111
*tremolo	*	*	*tremolo	*	*	*	*	*	*	*	*	*	*	*	*	*	*	*	*
!	!	!LO:DY:a:t=for	!	!	!	!	!	!	!	!	!	!	!	!	!	!	!	!	!
8E-\L	6	f	16g/LL	4bb-/ 4b-/ 4e-/	.	4E-\	de-	4B-\	de-	4g\	-cto	4.ryy	.	.	4.ee-\	.	4.gg\	4.ryy	4.ryy
.	.	.	16b-/	.	.	.	.	.	.	.	.	.	.	.	.	.	.	.	.
8E-\	.	.	16g/	.	.	.	.	.	.	.	.	.	.	.	.	.	.	.	.
.	.	.	16b-/	.	.	.	.	.	.	.	.	.	.	.	.	.	.	.	.
8E-\J	.	.	16g/	8gg\	.	8E-\	-ſcen-	8B-\	-ſcen-	8g\	ex	.	.	.	.	.	.	.	.
.	.	.	16b-/JJ	.	.	.	.	.	.	.	.	.	.	.	.	.	.	.	.
=112	=112	=112	=112	=112	=112	=112	=112	=112	=112	=112	=112	=112	=112	=112	=112	=112	=112	=112	=112
8E-\L	.	.	16g/LL	8gg\L	.	4E-\	.	4B-\	.	4g\	ma-	4.ryy	.	.	4.ee-\	.	4.gg\	4.ryy	4.ryy
.	.	.	16b-/	.	.	.	.	.	.	.	.	.	.	.	.	.	.	.	.
8E-\	.	.	16g/	16aa-\L	.	.	.	.	.	.	.	.	.	.	.	.	.	.	.
.	.	.	16b-/	16gg\	.	.	.	.	.	.	.	.	.	.	.	.	.	.	.
8E-\J	.	.	16g/	16ff\	.	8E-\	-dit	8B-\	.	8g\	-ri-	.	.	.	.	.	.	.	.
.	.	.	16b-/JJ	16gg\JJ	.	.	.	.	.	.	.	.	.	.	.	.	.	.	.
!LO:PB:g=original	!	!	!	!	!	!	!	!	!	!	!	!	!	!	!	!	!	!	!
=113	=113	=113	=113	=113	=113	=113	=113	=113	=113	=113	=113	=113	=113	=113	=113	=113	=113	=113	=113
8BB-/L	.	.	16f/LL	4aa-\	.	4B-\	.	4B-\	-dit	4f\	-a	4.ryy	.	.	4.dd\	.	4.ff\	4.ryy	4.ryy
.	.	.	16a-/	.	.	.	.	.	.	.	.	.	.	.	.	.	.	.	.
8BB-/	.	.	16f/	.	.	.	.	.	.	.	.	.	.	.	.	.	.	.	.
.	.	.	16a-/	.	.	.	.	.	.	.	.	.	.	.	.	.	.	.	.
*	*	*	*	*	*	*	*ij	*	*	*	*	*	*	*	*	*	*	*	*
8BB-/J	.	.	16f/	8ff\	.	8B-\	de-	8B-\	.	8f\	vir-	.	.	.	.	.	.	.	.
.	.	.	16a-/JJ	.	.	.	.	.	.	.	.	.	.	.	.	.	.	.	.
!	!	!	!	!	!	!	!	!LO:LB:g=original	!	!	!	!	!	!	!	!	!	!	!
=114	=114	=114	=114	=114	=114	=114	=114	=114	=114	=114	=114	=114	=114	=114	=114	=114	=114	=114	=114
8BB-/L	.	.	16f/LL	8ff\L	.	4B-\	-ſcen-	4B-\	Et	4f\	.	4.ryy	.	.	4.dd\	.	4.ff\	4.ryy	4.ryy
.	.	.	16a-/	.	.	.	.	.	.	.	.	.	.	.	.	.	.	.	.
8BB-/	.	.	16f/	16gg\L	.	.	.	.	.	.	.	.	.	.	.	.	.	.	.
.	.	.	16a-/	16ff\	.	.	.	.	.	.	.	.	.	.	.	.	.	.	.
8BB-/J	.	.	16f/	16ee-\	.	8B-\	.	8B-\	.	8f\	-gi-	.	.	.	.	.	.	.	.
.	.	.	16a-/JJ	16ff\JJ	.	.	.	.	.	.	.	.	.	.	.	.	.	.	.
=115	=115	=115	=115	=115	=115	=115	=115	=115	=115	=115	=115	=115	=115	=115	=115	=115	=115	=115	=115
!	!	!	!	!	!	!LO:TX:b:i:t=Verte Cito	!	!	!	!	!	!	!	!	!	!	!	!	!
8E-\L	.	.	16g/LL	4gg\	.	4E-\	.	4B-\	in	4g\	-ne	4.ryy	.	.	4.ee-\	.	4.gg\	4.ryy	4.ryy
.	.	.	16b-/	.	.	.	.	.	.	.	.	.	.	.	.	.	.	.	.
8E-\	.	.	16g/	.	.	.	.	.	.	.	.	.	.	.	.	.	.	.	.
.	.	.	16b-/	.	.	.	.	.	.	.	.	.	.	.	.	.	.	.	.
8E-\J	.	.	16g/	8ee-\	.	8E-\	-dit	8B-\	.	8g\	.	.	.	.	.	.	.	.	.
*	*	*	*	*	*	*	*Xij	*	*	*	*	*	*	*	*	*	*	*	*
.	.	.	16b-/JJ	.	.	.	.	.	.	.	.	.	.	.	.	.	.	.	.
!	!	!	!	!LO:LB:g=original	!	!LO:PB:g=original	!	!	!	!	!	!	!	!	!	!	!	!	!
=116	=116	=116	=116	=116	=116	=116	=116	=116	=116	=116	=116	=116	=116	=116	=116	=116	=116	=116	=116
8A-\L	6	.	16a-\LL	8ff\L	.	4A-\	Et	4c\	car-	4a-\	Cru-	4.ryy	.	.	4.ff\	.	4.aa-\	4.ryy	4.ryy
.	.	.	16cc\	.	.	.	.	.	.	.	.	.	.	.	.	.	.	.	.
8A-\	.	.	16a-\	8aa-\	.	.	.	.	.	.	.	.	.	.	.	.	.	.	.
.	.	.	16cc\	.	.	.	.	.	.	.	.	.	.	.	.	.	.	.	.
8A-\J	.	.	16a-\	8ff\J	.	8A-\	.	8c\	-na-	8a-\	.	.	.	.	.	.	.	.	.
.	.	.	16cc\JJ	.	.	.	.	.	.	.	.	.	.	.	.	.	.	.	.
=117	=117	=117	=117	=117	=117	=117	=117	=117	=117	=117	=117	=117	=117	=117	=117	=117	=117	=117	=117
8B-\L	.	.	16f/LL	8dd\L	.	4.B-\	in-	4.B-\	-tus-	4.f\	-ci-	4.ryy	.	.	4.dd\	.	4.ff\	4.ryy	4.ryy
.	.	.	16a-/	.	.	.	.	.	.	.	.	.	.	.	.	.	.	.	.
8B-\	.	.	16f/	8cc\	.	.	.	.	.	.	.	.	.	.	.	.	.	.	.
.	.	.	16a-/	.	.	.	.	.	.	.	.	.	.	.	.	.	.	.	.
8B-\J	.	.	16f/	8dd\J	.	.	.	.	.	.	.	.	.	.	.	.	.	.	.
.	.	.	16a-/JJ	.	.	.	.	.	.	.	.	.	.	.	.	.	.	.	.
*	*	*	*Xtremolo	*	*	*	*	*	*	*	*	*	*	*	*	*	*	*	*
=118	=118	=118	=118	=118	=118	=118	=118	=118	=118	=118	=118	=118	=118	=118	=118	=118	=118	=118	=118
8E-\L	.	.	8g/L	8ee-\L	.	8E-\	-car-	8B-\	.	8g\L	-fi-	4.ryy	.	.	4ee-\	.	4.gg\	4.ryy	4.ryy
8E-\	.	.	16G/L	8b-\	.	8E-\	.	8e-\	-est	8g\	-xus	.	.	.	.	.	.	.	.
.	.	.	16B-/	.	.	.	.	.	.	.	.	.	.	.	.	.	.	.	.
8E-\J	.	.	16G/	8b-\J	.	8E-\	-na-	8e-\	.	8g\J	.	.	.	.	8b-\	.	.	.	.
.	.	.	16B-/JJ	.	.	.	.	.	.	.	.	.	.	.	.	.	.	.	.
!	!	!	!LO:LB:g=original	!	!	!	!	!	!	!LO:LB:g=original	!	!	!	!	!	!	!	!	!
=119	=119	=119	=119	=119	=119	=119	=119	=119	=119	=119	=119	=119	=119	=119	=119	=119	=119	=119	=119
*	*	*	*tremolo	*	*	*	*	*	*ij	*	*	*	*	*	*	*	*	*	*
8E-\L	6 4	.	16A-/LL	8cc\L	.	8E-\	.	8e-\	Et	8a-\	e-	4.ryy	.	.	4.cc\	.	4.aa-\	4.ryy	4.ryy
.	.	.	16c/	.	.	.	.	.	.	.	.	.	.	.	.	.	.	.	.
8E-\	.	.	16A-/	8a-\	.	8E-\	-tus	8e-\	.	8a-\	-ti-	.	.	.	.	.	.	.	.
.	.	.	16c/	.	.	.	.	.	.	.	.	.	.	.	.	.	.	.	.
8E-\J	.	.	16A-/	8a-\J	.	8E-\	.	8e-\	in-	8a-\	-am	.	.	.	.	.	.	.	.
.	.	.	16c/JJ	.	.	.	.	.	.	.	.	.	.	.	.	.	.	.	.
=120	=120	=120	=120	=120	=120	=120	=120	=120	=120	=120	=120	=120	=120	=120	=120	=120	=120	=120	=120
!	!	!	!	!LO:TX:a:t=P:problem:mixed beam	!	!	!	!	!	!	!	!	!	!	!	!	!	!	!
8E-\L	7 2	.	16d/LL	8f/L	.	4E-\	est	4e-\	-car-	4f\	pro	4.ryy	.	.	4.dd\	.	4.ff\	4.ryy	4.ryy
.	.	.	16f/	.	.	.	.	.	.	.	.	.	.	.	.	.	.	.	.
*	*	*	*	*8\right	*	*	*	*	*	*	*	*	*	*	*	*	*	*	*
!	!	!	!	!LO:TX:a:t=120	!	!	!	!	!	!	!	!	!	!	!	!	!	!	!
8E-\	.	.	16d/	8dd\	.	.	.	.	.	.	.	.	.	.	.	.	.	.	.
.	.	.	16f/	.	.	.	.	.	.	.	.	.	.	.	.	.	.	.	.
8E-\J	.	.	16d/	8dd\J	.	8E-\	.	8e-\	.	8f\	.	.	.	.	.	.	.	.	.
.	.	.	16f/JJ	.	.	.	.	.	.	.	.	.	.	.	.	.	.	.	.
=121	=121	=121	=121	=121	=121	=121	=121	=121	=121	=121	=121	=121	=121	=121	=121	=121	=121	=121	=121
8E-\L	.	.	16e-/LL	4ee-\	.	4E-\	De	4e-\	-na-	4g\	no-	4.ryy	.	.	4.ee-\	.	4.gg\	4.ryy	4.ryy
.	.	.	16g/	.	.	.	.	.	.	.	.	.	.	.	.	.	.	.	.
8E-\	.	.	16e-/	.	.	.	.	.	.	.	.	.	.	.	.	.	.	.	.
.	.	.	16g/	.	.	.	.	.	.	.	.	.	.	.	.	.	.	.	.
*	*	*	*	*8\left	*	*	*	*	*	*	*	*	*	*	*	*	*	*	*
8E-\J	.	.	16e-/	8cc\	.	8E-\	.	8e-\	.	8g\	-bis	.	.	.	.	.	.	.	.
.	.	.	16g/JJ	.	.	.	.	.	.	.	.	.	.	.	.	.	.	.	.
=122	=122	=122	=122	=122	=122	=122	=122	=122	=122	=122	=122	=122	=122	=122	=122	=122	=122	=122	=122
8E-\L	.	.	16G/LL	8g/L	.	4E-\	Spi-	4e-\	-tus	4g\	.	4.ryy	.	.	4.b-\	.	4.gg\	4.ryy	4.ryy
.	.	.	16B-/	.	.	.	.	.	.	.	.	.	.	.	.	.	.	.	.
8E-\	.	.	16G/	8b-/	.	.	.	.	.	.	.	.	.	.	.	.	.	.	.
.	.	.	16B-/	.	.	.	.	.	.	.	.	.	.	.	.	.	.	.	.
8E-\J	.	.	16G/	8b-/J	.	8E-\	.	8e-\	est	8g\	Sub	.	.	.	.	.	.	.	.
*	*	*	*	*	*	*	*	*	*Xij	*	*	*	*	*	*	*	*	*	*
.	.	.	16B-/JJ	.	.	.	.	.	.	.	.	.	.	.	.	.	.	.	.
=123	=123	=123	=123	=123	=123	=123	=123	=123	=123	=123	=123	=123	=123	=123	=123	=123	=123	=123	=123
8E-\L	6 4	.	16A-/LL	4cc\	.	8E-\	-ri-	8e-'\L	Ex	8a-\L	pon-	4.ryy	.	.	4.cc\	.	4.aa-\	4.ryy	4.ryy
.	.	.	16c/	.	.	.	.	.	.	.	.	.	.	.	.	.	.	.	.
8E-\	.	.	16A-/	.	.	8E-\	.	8e-'\	.	8a-\	.	.	.	.	.	.	.	.	.
.	.	.	16c/	.	.	.	.	.	.	.	.	.	.	.	.	.	.	.	.
8E-\J	.	.	16A-/	8a-/	.	8E-\	-tu	8e-'\J	.	8a-\J	.	.	.	.	.	.	.	.	.
.	.	.	16c/JJ	.	.	.	.	.	.	.	.	.	.	.	.	.	.	.	.
=124	=124	=124	=124	=124	=124	=124	=124	=124	=124	=124	=124	=124	=124	=124	=124	=124	=124	=124	=124
8E-\L	7_ 2_	.	16d/LL	8f\L	.	4E-\	San-	4e-\	Ma-	4f\	-tio	4.ryy	.	.	4.dd\	.	4.ff\	4.ryy	4.ryy
.	.	.	16f/	.	.	.	.	.	.	.	.	.	.	.	.	.	.	.	.
8E-\	.	.	16d/	8dd/	.	.	.	.	.	.	.	.	.	.	.	.	.	.	.
.	.	.	16f/	.	.	.	.	.	.	.	.	.	.	.	.	.	.	.	.
!	!	!	!	!	!	!	!	!	!	!LO:SIC:l:s:v=pi-	!	!	!	!	!	!	!	!	!
8E-\J	x	.	16d/	8dd\J	.	8E-\	.	8e-\	-ri-	8f\	pe-	.	.	.	.	.	.	.	.
.	.	.	16f/JJ	.	.	.	.	.	.	.	.	.	.	.	.	.	.	.	.
!	!	!	!	!	!	!	!	!	!	!	!	!	!	!	!LO:LB:g=original	!	!	!	!
=125	=125	=125	=125	=125	=125	=125	=125	=125	=125	=125	=125	=125	=125	=125	=125	=125	=125	=125	=125
8E-\L	3	.	16e-/LL	4ee-\	.	4E-\	.	4e-\	-a	4g\	-la-	4.ryy	.	.	4.ee-\	.	4.gg\	4.ryy	4.ryy
.	.	.	16g/	.	.	.	.	.	.	.	.	.	.	.	.	.	.	.	.
8E-\	.	.	16e-/	.	.	.	.	.	.	.	.	.	.	.	.	.	.	.	.
.	.	.	16g/	.	.	.	.	.	.	.	.	.	.	.	.	.	.	.	.
8E-\J	.	.	16e-/	8gg\	.	8E-\	-cto	8B-\	.	8g\	-to	.	.	.	.	.	.	.	.
.	.	.	16g/JJ	.	.	.	.	.	.	.	.	.	.	.	.	.	.	.	.
!	!	!	!	!	!	!	!	!	!	!	!	!	!	!	!	!	!LO:LB:g=original	!	!
=126	=126	=126	=126	=126	=126	=126	=126	=126	=126	=126	=126	=126	=126	=126	=126	=126	=126	=126	=126
8D\L	6 5	.	16f/LL	8bb-\L	.	4D\	ex	4B-\	vir-	4a-\	.	4.ryy	.	.	4.ff\	.	4.aa-\	4.ryy	4.ryy
.	.	.	16b-/	.	.	.	.	.	.	.	.	.	.	.	.	.	.	.	.
8D\	.	.	16f/	8aa-\	.	.	.	.	.	.	.	.	.	.	.	.	.	.	.
.	.	.	16b-/	.	.	.	.	.	.	.	.	.	.	.	.	.	.	.	.
8D\J	.	.	16f/	8ff\J	.	8D\	.	8B-\	.	8a-\	pas-	.	.	.	.	.	.	.	.
.	.	.	16b-/JJ	.	.	.	.	.	.	.	.	.	.	.	.	.	.	.	.
!	!	!	!	!	!	!	!	!LO:LB:g=original	!	!	!	!	!	!	!	!	!	!	!
=127	=127	=127	=127	=127	=127	=127	=127	=127	=127	=127	=127	=127	=127	=127	=127	=127	=127	=127	=127
*	*	*	*	*	*	*	*	*8\right	*	*	*	*	*	*	*	*	*	*	*
8E-\L	.	.	16g/LL	8ee-\L	.	8E-\L	Ma-	8B-\	-gi-	8g\	.	4.ryy	.	.	4.ee-\	.	4.gg\	4.ryy	4.ryy
.	.	.	16b-/	.	.	.	.	.	.	.	.	.	.	.	.	.	.	.	.
8E-\	.	.	16g/	8gg\	.	8E-\	.	8B-\	-ne	8g\	-sus	.	.	.	.	.	.	.	.
.	.	.	16b-/	.	.	.	.	.	.	.	.	.	.	.	.	.	.	.	.
8E-\J	.	.	16g/	8gg\J	.	8E-\J	.	8B-\	.	8g\	.	.	.	.	.	.	.	.	.
.	.	.	16b-/JJ	.	.	.	.	.	.	.	.	.	.	.	.	.	.	.	.
!	!	!	!	!	!	!LO:LB:g=original	!	!	!	!	!	!	!	!	!	!	!	!	!
=128	=128	=128	=128	=128	=128	=128	=128	=128	=128	=128	=128	=128	=128	=128	=128	=128	=128	=128	=128
8D\L	6 5	.	16f/LL	8bb-\L	.	4D\	-ri-	4B-\	pas-	4a-\	et	4.ryy	.	.	4.ff\	.	4.aa-\	4.ryy	4.ryy
.	.	.	16b-/	.	.	.	.	.	.	.	.	.	.	.	.	.	.	.	.
8D\	.	.	16f/	8aa-\	.	.	.	.	.	.	.	.	.	.	.	.	.	.	.
.	.	.	16b-/	.	.	.	.	.	.	.	.	.	.	.	.	.	.	.	.
8D\J	.	.	16f/	8ff\J	.	8D\	-a	8B-\	-sus	8a-\	se-	.	.	.	.	.	.	.	.
.	.	.	16b-/JJ	.	.	.	.	.	.	.	.	.	.	.	.	.	.	.	.
!	!	!	!	!LO:LB:g=original	!	!	!	!	!	!	!	!	!	!	!	!	!	!	!
=129	=129	=129	=129	=129	=129	=129	=129	=129	=129	=129	=129	=129	=129	=129	=129	=129	=129	=129	=129
8E-\L	.	.	16g/LL	8ee-\L	.	4E-\	vir-	4B-\	.	4g\	-pul-	4.ryy	.	.	4.ee-\	.	4.gg\	4.ryy	4.ryy
.	.	.	16b-/	.	.	.	.	.	.	.	.	.	.	.	.	.	.	.	.
8E-\	.	.	16g/	8gg\	.	.	.	.	.	.	.	.	.	.	.	.	.	.	.
.	.	.	16b-/	.	.	.	.	.	.	.	.	.	.	.	.	.	.	.	.
*	*	*	*	*	*	*	*	*	*ij	*	*	*	*	*	*	*	*	*	*
8E-\J	.	.	16g/	8gg\J	.	8E-\	.	8B-\	pas-	8g\	.	.	.	.	.	.	.	.	.
.	.	.	16b-/JJ	.	.	.	.	.	.	.	.	.	.	.	.	.	.	.	.
*Xtremolo	*	*	*	*	*	*	*	*	*	*	*	*	*	*	*	*	*	*	*
!LO:LB:g=original	!	!	!	!	!	!	!	!	!LO:LB:g=original	!	!	!	!	!	!	!	!	!	!
=130	=130	=130	=130	=130	=130	=130	=130	=130	=130	=130	=130	=130	=130	=130	=130	=130	=130	=130	=130
!	!	!	!	!	!	!	!	!	!	!	!	!	!	!	!LO:SIC:v:t=brak dwóch taktów-żeby sie zgadzało z clarinetto primo	!	!	!	!
8A-\L	6	.	16f/LL	8aa-\L	.	4A-\	-gi-	4c\	-sus	4a-\	-tus	4.ryy	.	.	4.ryy	.	4.aa-\	4.ryy	4.ryy
*	*	*	*	*	*	*	*	*	*Xij	*	*	*	*	*	*	*	*	*	*
.	.	.	16a-/	.	.	.	.	.	.	.	.	.	.	.	.	.	.	.	.
!	!	!	!	!LO:TX:a:t=130	!	!	!	!	!	!	!	!	!	!	!	!	!	!	!
8A-\	_	.	16f/	8ff\	.	.	.	.	.	.	.	.	.	.	.	.	.	.	.
.	.	.	16a-/	.	.	.	.	.	.	.	.	.	.	.	.	.	.	.	.
8B-\J	.	.	16f/	8dd\J	.	8B-\	-ne	8d\	.	8a-\	.	.	.	.	.	.	.	.	.
.	x	.	16a-/JJ	.	.	.	.	.	.	.	.	.	.	.	.	.	.	.	.
=131	=131	=131	=131	=131	=131	=131	=131	=131	=131	=131	=131	=131	=131	=131	=131	=131	=131	=131	=131
*	*	*	*	*	*	*	*	*4\right	*	*	*	*	*	*	*	*	*	*	*
8c\L	.	.	16e-/LL	8ee-\L	.	4c\	et	4e-\	et	4g\	est	4.ryy	.	.	4.ryy	.	4.gg\	4.ryy	4.ryy
.	.	.	16g/	.	.	.	.	.	.	.	.	.	.	.	.	.	.	.	.
8c\	.	.	16e-/	8gg\	.	.	.	.	.	.	.	.	.	.	.	.	.	.	.
.	.	.	16g/	.	.	.	.	.	.	.	.	.	.	.	.	.	.	.	.
8G\J	6	.	16e-/	8bb-\J	.	8G\	.	8B-\	Se-	8g\	.	.	.	.	.	.	.	.	.
.	.	.	16g/JJ	.	.	.	.	.	.	.	.	.	.	.	.	.	.	.	.
*	*	*	*Xtremolo	*	*	*	*	*	*	*	*	*	*	*	*	*	*	*	*
!	!	!	!LO:LB:g=original	!	!	!	!	!	!	!	!	!	!	!	!	!	!	!	!
=132	=132	=132	=132	=132	=132	=132	=132	=132	=132	=132	=132	=132	=132	=132	=132	=132	=132	=132	=132
*	*	*	*	*	*	*	*	*2\left	*	*	*	*	*	*	*	*	*	*	*
8A-\L	6	.	8a-/L	16aa-\LL	.	4A-\	ho-	4c\	.	8a-\L	de-	4.ryy	.	.	8ff\L	.	8aa-\L	4.ryy	4.ryy
.	.	.	.	16ff\JJ	.	.	.	.	.	.	.	.	.	.	.	.	.	.	.
8B-\	4	.	8g/	8ee-\L	.	.	.	.	.	8g\J	.	.	.	.	8ee-\	.	8gg\	.	.
8BB-/J	3	.	8f/J	8dd\J	.	8B-\	-mo	8B-\	-pul-	8f\	-ſcen-	.	.	.	8dd\J	.	8ff\J	.	.
=133	=133	=133	=133	=133	=133	=133	=133	=133	=133	=133	=133	=133	=133	=133	=133!|:	=133	=133!|:	=133	=133
!	!	!	!	!	!	!	!	!	!	!	!	!	!	!	!LO:TX:a:t=Solo	!	!	!	!
4E-\	.	.	4g/	4ee-\	.	4E-\	.	4B-\	-tus	4g\	-dit	4.ryy	.	.	16ee-\LL	.	16gg\LL	4.ryy	4.ryy
.	.	.	.	.	.	.	.	.	.	.	.	.	.	.	16ff\	.	16aa-\	.	.
.	.	.	.	.	.	.	.	.	.	.	.	.	.	.	16ee-\	.	16gg\	.	.
.	.	.	.	.	.	.	.	.	.	.	.	.	.	.	16dd\	.	16ff\	.	.
8r	.	.	8r	8r	.	8r	.	8r	.	8r	.	.	.	.	16ee-\	.	16gg\	.	.
.	.	.	.	.	.	.	.	.	.	.	.	.	.	.	16ff\JJ	.	16aa\JJ	.	.
=134	=134	=134	=134	=134	=134	=134	=134	=134	=134	=134	=134	=134	=134	=134	=134	=134	=134	=134	=134
8r	.	.	8r	4r	.	8r	.	8r	.	8r	.	4.ryy	.	.	(16gg\LL	.	16bb-\LL	4.ryy	4.ryy
.	.	.	.	.	.	.	.	.	.	.	.	.	.	.	16ff#X\	.	16aa\	.	.
8r	.	.	8r	.	.	8r	.	8r	.	8r	.	.	.	.	16gg\	.	16bb-\	.	.
.	.	.	.	.	.	.	.	.	.	.	.	.	.	.	16ff\	.	16aa-X\	.	.
*	*	*	*	*	*	*	*	*	*	*	*ij	*	*	*	*	*	*	*	*
8BB-/	.	.	8dd\ 8g\	8ff\ 8b-\ 8e-\	.	8B-\	fa-	8B-\	est	8f\	de-	.	.	.	16ee-\	.	16gg\	.	.
.	.	.	.	.	.	.	.	.	.	.	.	.	.	.	16dd\JJ)	.	16ff\JJ	.	.
=135	=135	=135	=135	=135	=135	=135	=135	=135	=135	=135	=135	=135	=135	=135	=135:|!	=135	=135:|!	=135	=135
!	!	!	!	!	!	!	!	!LO:N:vis=4.	!	!	!	!	!	!	!LO:SIC:v:t=takty 135-136 zapisane repetycją	!	!LO:SIC:v:ttakty 135-136 zapisane repetycją	!	!
4E-\	.	.	8ee-\ 8g\	4gg/ 4b-/ 4e-/	.	4E-\	-ctus	4B-\	.	8g\	-scendit	4.ryy	.	.	16ee-\LLyy	.	16gg\LLyy	4.ryy	4.ryy
*	*	*	*	*	*	*	*	*	*	*	*Xij	*	*	*	*	*	*	*	*
.	.	.	.	.	.	.	.	.	.	.	.	.	.	.	16ff\yy	.	16aa-\yy	.	.
.	.	.	4r	.	.	.	.	.	.	8r	.	.	.	.	16ee-\yy	.	16gg\yy	.	.
.	.	.	.	.	.	.	.	.	.	.	.	.	.	.	16dd\yy	.	16ff\yy	.	.
8r	.	.	.	8r	.	8r	.	8r	.	8r	.	.	.	.	16ee-\yy	.	16gg\yy	.	.
.	.	.	.	.	.	.	.	.	.	.	.	.	.	.	16ff\JJyy	.	16aa\JJyy	.	.
=136	=136	=136	=136	=136	=136	=136	=136	=136	=136	=136	=136	=136	=136	=136	=136	=136	=136	=136	=136
8r	.	.	8r	8r	.	8r	.	8r	.	8r	.	4.ryy	.	.	(yy16gg\LLyy	.	16bb-\LLyy	4.ryy	4.ryy
.	.	.	.	.	.	.	.	.	.	.	.	.	.	.	16ff#X\yy	.	16aa\yy	.	.
8r	.	.	8r	8g/	.	8r	.	8r	.	8r	.	.	.	.	16gg\yy	.	16bb-\yy	.	.
.	.	.	.	.	.	.	.	.	.	.	.	.	.	.	16ff\yy	.	16aa-X\yy	.	.
8BB-/	.	.	8dd\ 8g\	8ff/ 8b-/ 8d/	.	8B-\	est	8B-\	de	8f\	de	.	.	.	16ee-\yy	.	16gg\yy	.	.
.	.	.	.	.	.	.	.	.	.	.	.	.	.	.	16dd\JJ)yy	.	16ff\JJyy	.	.
=137	=137	=137	=137	=137	=137	=137	=137	=137	=137	=137	=137	=137	=137	=137	=137	=137	=137	=137	=137
!	!	!	!	!	!	!	!	!LO:SIC:l:s:v=caelis	!	!LO:SIC:l:s:v=caelis	!	!	!	!	!	!LO:DY:a:t=for	!	!	!
8E-\L	.	.	8ee-\ 8g\	8gg\L 8b-\ 8e-\	.	4E-\	.	4B-\	celis	4g\	celis	4.ryy	.	.	8ee-\L	f	8gg\L	4.ryy	4.ryy
!LO:TX:a:t=|	!	!	!	!	!	!	!	!	!	!	!	!	!	!	!	!	!	!	!
8B-\	.	.	8b-\L	8bb-\	.	.	.	.	.	.	.	.	.	.	8b-\	.	8bb-\	.	.
!LO:TX:a:t=|	!	!	!	!	!	!	!	!	!	!	!	!	!	!	!	!	!	!	!
8G\J	.	.	8g\J	8gg\J	.	8r	.	8r	.	8r	.	.	.	.	8g\J	.	8gg\J	.	.
=138	=138	=138	=138	=138	=138	=138	=138	=138	=138	=138	=138	=138	=138	=138	=138	=138	=138	=138	=138
!LO:TX:a:t=|	!	!	!	!	!	!LO:TX:a:t=3.	!	!LO:TX:a:t=3	!	!LO:TX:a:t=3	!	!	!	!	!	!	!	!	!
8E-\L	.	.	8e-/L	8ee-\L	.	2.r	.	2.r	.	2.r	.	4.ryy	.	.	8e-/L	.	8gg\L	4.ryy	4.ryy
!LO:TX:a:t=|	!	!	!	!	!	!	!	!	!	!	!	!	!	!	!	!	!	!	!
8B-\	.	.	8g/	8gg\ 8b-\ 8e-\	.	.	.	.	.	.	.	.	.	.	8b-/	.	8bb-\	.	.
!LO:TX:a:t=|	!	!	!	!	!	!	!	!	!	!	!	!	!	!	!	!	!	!	!
8G\J	.	.	8e-/J	8gg\J 8b-\ 8e-\	.	.	.	.	.	.	.	.	.	.	8g/J	.	8gg\J	.	.
=139	=139	=139	=139	=139	=139	=139	=139	=139	=139	=139	=139	=139	=139	=139	=139	=139	=139	=139	=139
!	!	!	!	!	!	!	!	!	!	!	!	!	!	!	!LO:TX:a:t=P:problem:mixed beam	!	!	!	!
8E-\L	.	.	8e-/	4gg\ 4b-\ 4e-\	.	.	.	.	.	.	.	4.ryy	.	.	8e-/L	.	8ee-\L	4.ryy	4.ryy
8E-\	.	.	8ee-\L 8g\	.	.	.	.	.	.	.	.	.	.	.	8ee-\	.	8gg\	.	.
!	!	!	!	!LO:TX:a:t=129	!	!	!	!	!	!	!	!	!	!	!	!	!	!	!
8E-\J	.	.	8ee-\J 8g\	8r	.	.	.	.	.	.	.	.	.	.	8ee-\J	.	8gg\J	.	.
=140	=140	=140	=140	=140	=140	=140	=140	=140	=140	=140	=140	=140	=140	=140	=140	=140	=140	=140	=140
4E-\	.	.	4ee-\ 4g\	4.r	.	4.r	.	4.r	.	4.r	.	4.ryy	.	.	4ee-\	.	4gg\	4.ryy	4.ryy
8r	.	.	8r	.	.	.	.	.	.	.	.	.	.	.	8r	.	8r	.	.
==	==	==	==	==	==	==	==	==	==	==	==	==	==	==	==	==	==	==	==
*-	*-	*-	*-	*-	*-	*-	*-	*-	*-	*-	*-	*-	*-	*-	*-	*-	*-	*-	*-
!!!system-decoration: [(s1,s2)][(s3,s4,s5,s6)][(s7,s8)][(s9)][(s10,s11)]
!!!ENC:Anatazja Marusiak
!!!END:2020-07-17
!!!ENC: Leszek Kubiak
!!!END: 2022-01-15
